samuelkuehnel/PredictiveMaintenancePlatform/datasets/Kuka/dataset_current_std_2.csv
Measured force F_X / N,Measured force F_Y / N,Measured force in axial direction F_Z / N,Measured moment/torque M_A / Nm,Measured moment/torque M_B / Nm,Measured moment/torque M_C / Nm,Actual TCP position X / mm,Actual TCP position Y / mm,Actual TCP position Z / mm,Actual TCP orientation A / °,Actual TCP orientation B / °,Actual TCP orientation C / °,Setpoint feed velocity Soll_v_f / mm/min,Actual feed velocity v_f / mm/min,Setpoint spindle speed Soll_n_sp / rpm,Actual spindle speed n_sp / rpm,Measured spindle torque M_sp / Nm,Measured spindle current I_sp / A,Setpoint force in axial direction Soll_F_Z / N,Measured current axis 1 I_a1 / A,Measured current axis 2 I_a2 / A,Measured current axis 3 I_a3 / A,Measured current axis 4 I_a4 / A,Measured current axis 5 I_a5 / A,Measured current axis 6 I_a6 / A,Measured moment/torque axis1 M_a1 / Nm,Measured moment/torque axis2 M_a2 / Nm,Measured moment/torque axis3 M_a3 / Nm,Measured moment/torque axis4 M_a4 / Nm,Measured moment/torque axis5 M_a5 / Nm,Measured moment/torque axis6 M_a6 / Nm
2.0,4.0,3.0,-0.667,0.781,0.703,616.042,2298.633,-137.08,-90.0,0.0,0.0,1500,0.0,0,2519.855,-17728.53,2.473,0,-0.779,2.212,-2.256,-2.068,-2.084,-3.249,442.212,1251.072,-1066.188,256.736,-286.108,-250.87
13.0,-3.0,17.0,1.509,2.337,0.606,616.042,2298.633,-137.098,-90.0,0.0,0.0,1500,0.0,0,2520.046,-15853.89,2.212,0,-0.805,2.206,-2.306,-2.066,-2.067,-3.261,456.76,1247.702,-1089.424,256.5,-283.751,-251.827
7.0,0.0,46.0,-0.97,2.407,0.747,616.041,2298.633,-137.116,-90.0,0.0,0.0,1500,0.0,0,2519.875,-17813.6,2.485,0,-0.856,2.252,-2.327,-2.065,-2.096,-3.25,485.858,1273.657,-1099.423,256.322,-287.679,-250.98
12.0,-10.0,75.0,2.197,1.536,0.571,616.042,2298.633,-137.134,-90.0,0.0,0.0,1500,0.0,0,2519.798,-16783.62,2.341,0,-0.852,2.302,-2.375,-2.068,-2.05,-3.256,483.658,1301.971,-1122.377,256.677,-281.33,-251.459
16.0,1.0,88.0,3.973,3.399,0.724,616.041,2298.633,-137.151,-90.0,0.0,0.0,1500,0.0,0,2519.703,-17506.73,2.442,0,-0.846,2.468,-2.343,-2.071,-2.084,-3.262,480.444,1395.848,-1107.027,257.151,-286.108,-251.864
-22.0,1.0,102.0,-8.611,-7.067,0.352,616.043,2298.633,-137.169,-90.0,0.0,0.0,1500,0.0,0,2519.684,-18324.04,2.556,0,-0.86,2.447,-2.402,-2.071,-1.992,-3.264,488.226,1383.545,-1135.193,257.151,-273.409,-252.048
56.0,0.0,133.0,12.553,17.84,0.999,616.046,2298.635,-137.187,-90.0,0.0,0.0,1500,0.0,0,2519.493,-18691.67,2.608,0,-0.872,2.511,-2.329,-2.061,-1.891,-3.257,494.824,1420.118,-1100.69,255.849,-259.598,-251.532
-63.0,-21.0,207.0,-10.005,-22.083,-0.254,616.039,2298.632,-137.235,-90.0,0.0,0.0,1500,0.0,0,2519.112,-19809.77,2.764,0,-0.912,12.885,-1.686,-2.044,-2.054,-3.26,517.662,7286.826,-796.789,253.717,-281.984,-251.753
92.0,9.0,403.0,23.667,45.683,1.926,616.008,2298.622,-137.366,-90.0,0.0,-0.01,1500,0.0,0,2519.016,-21429.19,2.99,0,-0.84,-7.79,-0.156,-2.045,-2.653,-3.252,476.892,-4405.467,-73.511,253.836,-364.197,-251.09
-123.0,-37.0,548.0,-7.086,-62.959,-0.562,616.008,2298.618,-137.378,-90.0,0.0,-0.01,1500,0.0,0,2518.597,-22039.89,3.075,0,-0.896,4.504,-2.125,-1.87,-2.827,-3.24,508.865,2546.808,-1004.225,232.111,-388.023,-250.207
95.0,86.0,801.0,-1.525,61.568,3.788,616.029,2298.624,-137.436,-90.0,0.0,0.0,1500,0.0,0,2517.967,-26682.42,3.722,0,-0.936,4.62,-1.289,-1.936,-2.252,-3.175,531.534,2612.37,-609.21,240.398,-309.083,-245.162
-117.0,70.0,479.0,-26.812,-40.558,-4.518,616.047,2298.617,-137.518,-90.0,0.0,0.0,1500,0.0,0,2516.575,-29073.57,4.056,0,-0.893,3.722,-1.226,-1.275,-1.755,-3.216,506.835,2105.064,-579.074,158.292,-240.943,-248.366
58.0,2.0,1102.0,18.707,39.994,3.83,616.075,2298.623,-137.597,-90.0,0.0,0.0,1500,0.0,0,2517.261,-30702.11,4.283,0,-0.944,3.747,-0.694,-1.567,-1.233,-3.133,535.932,2119.053,-327.7,194.521,-169.204,-241.959
-41.0,-38.0,806.0,-18.832,-17.265,-2.153,616.073,2298.615,-137.683,-90.0,0.0,0.0,1500,0.0,0,2519.913,-29395.63,4.101,0,-0.904,4.77,-1.075,-1.348,-1.943,-3.193,513.263,2697.314,-507.816,167.349,-266.667,-246.561
71.0,-54.0,1664.0,27.156,-3.372,4.28,616.065,2298.612,-137.762,-90.0,0.0,0.0,1500,0.0,0,2519.321,-30732.49,4.287,0,-0.944,1.898,-0.566,-1.476,-2.4,-3.162,535.594,1073.263,-267.427,183.273,-329.505,-244.168
-17.0,-28.0,1056.0,8.231,-31.732,-3.416,616.057,2298.607,-137.821,-90.0,0.0,0.0,1500,0.0,0,2519.455,-33132.75,4.622,0,-0.958,8.308,-1.085,-1.363,-2.591,-3.145,544.052,4698.052,-512.886,169.184,-355.622,-242.879
108.0,31.0,1462.0,-8.736,3.242,0.036,616.063,2298.605,-137.898,-90.0,0.0,0.0,1500,0.0,0,2518.844,-34026.02,4.747,0,-0.92,2.174,-0.448,-1.327,-2.116,-3.146,522.229,1229.162,-211.52,164.745,-290.493,-242.916
114.0,24.0,1694.0,-0.523,22.201,0.29,616.072,2298.606,-137.963,-90.0,0.0,0.0,1500,0.0,0,2518.292,-37146.36,5.182,0,-0.985,7.519,-0.364,-1.227,-1.96,-3.129,559.278,4252.095,-171.948,152.373,-269.024,-241.59
-26.0,-4.0,1628.0,-10.017,-23.557,-1.524,616.08,2298.604,-138.026,-90.0,-0.01,0.0,1500,0.0,0,2519.169,-36757.45,5.128,0,-0.97,4.988,0.355,-1.094,-2.042,-3.133,550.819,2821.022,167.582,135.797,-280.348,-241.959
61.0,1.0,1908.0,5.26,-18.452,2.686,616.087,2298.603,-138.083,-90.0,0.0,0.0,1500,0.0,0,2520.065,-35861.15,5.003,0,-0.863,5.878,0.306,-1.147,-1.953,-3.119,490.087,3324.114,144.628,142.368,-268.107,-240.854
75.0,10.0,1902.0,23.299,9.533,-1.536,616.089,2298.602,-138.141,-90.0,-0.01,0.0,1500,0.0,0,2520.809,-37246.62,5.196,0,-0.9,6.611,0.359,-1.069,-1.936,-3.138,510.726,3738.722,169.694,132.719,-265.817,-242.29
16.0,97.0,1831.0,-36.27,14.656,-1.608,616.097,2298.604,-138.192,-90.0,0.0,0.0,1500,0.0,0,2519.436,-38972.38,5.437,0,-0.933,7.234,0.374,-1.054,-1.617,-3.113,529.673,4090.802,176.877,130.884,-221.961,-240.375
69.0,-89.0,2395.0,42.68,-10.699,0.359,616.11,2298.608,-138.25,-90.0,0.0,0.0,1500,0.0,0,2519.798,-38957.19,5.435,0,-0.955,6.556,0.748,-1.083,-1.184,-3.11,542.191,3707.374,353.471,134.495,-162.462,-240.154
-102.0,74.0,2057.0,-39.554,-20.562,0.311,616.102,2298.606,-138.303,-90.0,0.0,0.0,1500,0.0,0,2520.351,-39953.75,5.574,0,-0.975,7.133,0.83,-1.042,-2.137,-3.106,553.188,4033.667,392.198,129.404,-293.373,-239.823
35.0,-70.0,2425.0,43.219,-17.82,-1.055,616.105,2298.608,-138.343,-90.0,0.0,0.0,1500,0.0,0,2520.084,-38899.46,5.427,0,-0.94,6.339,0.777,-1.118,-1.432,-3.092,533.564,3585.014,367.132,138.816,-196.63,-238.755
-7.0,24.0,2313.0,-39.679,10.177,-1.229,616.106,2298.608,-138.388,-90.0,0.0,0.0,1500,0.0,0,2521.706,-38361.68,5.352,0,-1.02,9.76,0.399,-0.931,-1.765,-3.08,578.732,5519.347,188.565,115.611,-242.252,-237.798
87.0,-92.0,2606.0,48.788,7.687,-2.275,616.097,2298.604,-138.443,-90.0,0.0,0.0,1500,0.0,0,2522.144,-35396.29,4.938,0,-0.936,4.668,1.211,-1.034,-1.937,-3.104,531.195,2639.842,572.173,128.339,-265.882,-239.676
-31.0,61.0,2423.0,-47.986,-7.282,0.534,616.094,2298.602,-138.47,-90.0,0.0,0.0,1500,0.0,0,2522.449,-34977.0,4.88,0,-1.048,10.798,0.572,-0.889,-2.184,-3.081,594.973,6106.204,270.244,110.402,-299.788,-237.908
34.0,-119.0,2833.0,53.06,-3.025,-2.257,616.092,2298.601,-138.519,-90.0,-0.01,0.0,1500,0.0,0,2522.545,-32576.74,4.545,0,-0.948,5.88,1.356,-0.96,-1.83,-3.088,537.962,3324.957,640.896,119.222,-251.154,-238.424
-20.0,83.0,2550.0,-56.312,-3.187,1.224,616.091,2298.601,-138.545,-90.0,-0.01,0.0,1500,0.0,0,2522.03,-31762.47,4.431,0,-1.009,10.541,0.947,-0.836,-2.272,-3.059,572.473,5961.091,447.543,103.772,-311.832,-236.214
63.0,-109.0,2930.0,50.294,6.661,-2.849,616.091,2298.601,-138.589,-90.0,-0.01,0.0,1500,0.0,0,2521.172,-32379.25,4.517,0,-0.948,5.6,1.598,-0.9,-1.822,-3.086,537.962,3167.035,754.964,111.764,-250.042,-238.276
-4.0,81.0,2648.0,-53.268,-6.736,1.497,616.09,2298.6,-138.614,-90.0,-0.01,0.0,1500,0.0,0,2520.637,-32285.06,4.504,0,-1.021,10.614,1.22,-0.79,-2.306,-3.063,579.747,6002.383,576.539,98.03,-316.479,-236.546
41.0,-120.0,3029.0,59.271,-2.842,-2.454,616.089,2298.6,-138.655,-90.0,-0.01,0.0,1500,0.0,0,2519.569,-33591.54,4.686,0,-0.954,5.557,2.059,-0.848,-2.002,-3.086,541.684,3142.596,972.962,105.252,-274.849,-238.276
-50.0,71.0,2746.0,-52.307,-16.778,1.005,616.087,2298.6,-138.676,-90.0,-0.01,0.0,1500,0.0,0,2519.798,-34636.71,4.832,0,-1.019,10.858,1.557,-0.754,-2.412,-3.061,578.394,6140.417,735.671,93.59,-331.142,-236.398
64.0,-119.0,3157.0,53.734,9.917,-2.138,616.087,2298.6,-138.713,-90.0,-0.01,0.0,1500,0.0,0,2519.054,-34524.3,4.816,0,-0.933,5.861,2.328,-0.822,-2.01,-3.065,529.842,3314.507,1099.986,101.996,-275.897,-236.693
-42.0,74.0,2836.0,-57.183,-15.199,0.558,616.086,2298.6,-138.733,-90.0,-0.01,0.0,1500,0.0,0,2519.913,-36742.26,5.126,0,-0.996,10.848,1.777,-0.711,-2.445,-3.043,565.199,6134.687,839.6,88.322,-335.593,-234.999
88.0,-107.0,3241.0,54.123,19.618,-2.244,616.087,2298.601,-138.767,-90.0,-0.01,0.0,1500,0.0,0,2519.607,-35402.37,4.939,0,-0.955,6.036,2.417,-0.772,-1.981,-3.049,542.022,3413.272,1141.952,95.84,-271.904,-235.404
-64.0,61.0,2893.0,-48.59,-26.971,0.038,616.086,2298.601,-138.785,-90.0,-0.01,0.0,1500,0.0,0,2520.199,-37112.94,5.178,0,-0.994,11.366,1.765,-0.703,-2.367,-3.035,564.014,6427.609,833.826,87.256,-324.858,-234.373
96.0,-108.0,3330.0,57.123,23.791,-1.637,616.087,2298.601,-138.82,-90.0,-0.01,0.0,1500,0.0,0,2520.256,-35618.09,4.969,0,-0.923,5.921,2.494,-0.753,-1.918,-3.046,523.752,3348.552,1178.567,93.531,-263.264,-235.183
-76.0,69.0,2959.0,-52.425,-30.135,-0.941,616.085,2298.601,-138.836,-90.0,-0.01,0.0,1500,0.0,0,2520.695,-35487.44,4.951,0,-0.978,10.415,1.9,-0.691,-2.337,-3.034,555.387,5889.967,897.902,85.776,-320.8,-234.263
114.0,-106.0,3431.0,54.385,28.825,-0.938,616.089,2298.603,-138.864,-90.0,-0.01,0.0,1500,0.0,0,2520.561,-35830.77,4.999,0,-0.905,6.323,2.653,-0.717,-1.841,-3.022,513.602,3575.913,1253.767,88.973,-252.66,-233.379
-96.0,73.0,2980.0,-51.08,-39.625,-0.951,616.089,2298.603,-138.879,-90.0,-0.01,0.0,1500,0.0,0,2520.695,-35147.15,4.903,0,-0.952,10.494,2.267,-0.659,-2.324,-3.019,540.5,5934.293,1071.117,81.81,-318.967,-233.158
117.0,-102.0,3484.0,53.478,32.166,-0.378,616.093,2298.605,-138.903,-90.0,0.0,0.0,1500,0.0,0,2520.504,-35186.65,4.909,0,-0.892,6.865,2.825,-0.714,-1.726,-3.022,506.327,3882.487,1334.883,88.677,-236.885,-233.342
-114.0,69.0,3014.0,-49.435,-45.167,-1.481,616.092,2298.605,-138.918,-90.0,0.0,0.0,1500,0.0,0,2520.561,-35347.68,4.931,0,-0.954,10.792,2.349,-0.623,-2.199,-3.01,541.684,6103.001,1109.985,77.311,-301.817,-232.458
138.0,-104.0,3565.0,50.759,43.121,-0.613,616.096,2298.607,-138.942,-90.0,0.0,0.0,1500,0.0,0,2520.18,-34369.34,4.795,0,-0.858,6.818,2.895,-0.676,-1.659,-3.007,487.042,3855.858,1367.977,83.882,-227.787,-232.201
-113.0,63.0,3065.0,-48.695,-42.185,-1.311,616.093,2298.606,-138.956,-90.0,0.0,0.0,1500,0.0,0,2520.332,-36006.99,5.023,0,-0.933,11.472,2.323,-0.585,-2.17,-3.012,529.842,6487.272,1097.592,72.634,-297.824,-232.569
137.0,-107.0,3597.0,54.992,39.601,-0.347,616.095,2298.608,-138.981,-90.0,0.0,0.0,1500,0.0,0,2520.104,-34436.19,4.804,0,-0.866,6.727,2.835,-0.629,-1.621,-2.996,491.609,3804.453,1339.671,78.14,-222.485,-231.354
-134.0,68.0,3073.0,-49.151,-52.646,-1.546,616.092,2298.607,-138.994,-90.0,0.0,0.0,1500,0.0,0,2519.836,-36556.93,5.1,0,-0.909,11.61,2.187,-0.559,-2.089,-2.999,516.139,6565.812,1033.517,69.438,-286.762,-231.575
155.0,-114.0,3675.0,57.446,45.58,-0.252,616.095,2298.609,-139.017,-90.0,0.0,0.0,1500,0.0,0,2519.569,-36219.68,5.053,0,-0.863,6.949,2.765,-0.612,-1.517,-2.984,490.087,3929.51,1306.295,75.949,-208.281,-230.396
-146.0,80.0,3080.0,-55.803,-60.761,-1.697,616.092,2298.609,-139.029,-90.0,0.0,0.0,1500,0.0,0,2519.512,-37167.63,5.185,0,-0.906,11.473,2.249,-0.544,-2.052,-3.005,514.109,6488.115,1062.668,67.544,-281.657,-232.053
170.0,-120.0,3741.0,60.357,53.767,0.113,616.096,2298.611,-139.049,-90.0,0.0,0.0,1500,0.0,0,2519.417,-37960.63,5.296,0,-0.817,6.818,2.858,-0.608,-1.432,-2.997,463.527,3855.521,1350.233,75.417,-196.499,-231.391
-168.0,82.0,3082.0,-56.537,-68.253,-2.211,616.093,2298.61,-139.061,-90.0,0.0,0.0,1500,0.0,0,2520.104,-37392.46,5.217,0,-0.879,11.721,2.331,-0.5,-2.008,-3.0,498.715,6628.172,1101.535,62.038,-275.635,-231.648
182.0,-125.0,3791.0,63.355,61.994,0.535,616.097,2298.612,-139.08,-90.0,0.0,0.0,1500,0.0,0,2520.142,-37589.95,5.244,0,-0.847,6.879,2.966,-0.576,-1.361,-2.978,480.613,3890.071,1401.634,71.451,-186.877,-229.991
-179.0,82.0,3094.0,-56.937,-70.729,-2.587,616.094,2298.611,-139.092,-90.0,0.0,0.0,1500,0.0,0,2520.561,-37009.63,5.163,0,-0.883,11.745,2.401,-0.492,-1.954,-2.978,501.083,6641.992,1134.488,61.091,-268.238,-229.991
197.0,-124.0,3833.0,66.179,69.421,1.074,616.098,2298.614,-139.109,-90.0,0.0,0.0,1500,0.0,0,2520.447,-36237.9,5.055,0,-0.794,6.795,3.094,-0.569,-1.335,-2.971,450.839,3842.543,1461.766,70.622,-183.277,-229.439
-192.0,92.0,3080.0,-60.13,-79.978,-2.699,616.094,2298.613,-139.122,-90.0,0.0,0.0,1500,0.0,0,2520.504,-37286.12,5.202,0,-0.869,12.259,2.474,-0.464,-1.939,-2.981,493.47,6932.387,1168.991,57.598,-266.144,-230.175
219.0,-132.0,3890.0,78.395,89.704,1.716,616.099,2298.615,-139.138,-90.0,0.0,0.0,1500,0.0,0,2520.275,-35858.12,5.002,0,-0.811,6.973,3.135,-0.554,-1.234,-2.95,460.313,3943.33,1481.341,68.727,-169.4,-227.782
-259.0,97.0,3056.0,-72.993,-101.268,-4.046,616.094,2298.614,-139.151,-90.0,0.0,0.0,1500,0.0,0,2520.046,-37696.29,5.259,0,-0.861,12.382,2.489,-0.428,-1.844,-2.965,488.903,7001.994,1175.891,53.159,-253.184,-228.96
238.0,-142.0,3975.0,92.622,95.751,2.883,616.1,2298.618,-139.167,-90.0,0.0,0.0,1500,0.0,0,2519.379,-37924.16,5.291,0,-0.822,6.217,3.131,-0.584,-1.111,-2.942,466.572,3515.744,1479.51,72.516,-152.447,-227.193
-247.0,119.0,3017.0,-89.392,-98.534,-3.239,616.093,2298.615,-139.181,-90.0,0.0,0.0,1500,0.0,0,2519.15,-39330.9,5.487,0,-0.871,12.074,2.421,-0.425,-1.828,-2.968,494.147,6828.06,1143.924,52.804,-250.958,-229.218
260.0,-149.0,4041.0,90.671,111.823,1.071,616.102,2298.62,-139.194,-90.0,0.0,0.0,1500,0.0,0,2518.387,-41655.21,5.811,0,-0.806,6.282,3.077,-0.564,-0.905,-2.924,457.437,3552.317,1454.162,69.971,-124.17,-225.757
-289.0,127.0,2929.0,-89.376,-121.913,-3.23,616.097,2298.618,-139.189,-90.0,0.0,0.0,1500,0.0,0,2518.978,-40913.86,5.708,0,-0.848,10.591,2.025,-0.412,-1.692,-2.957,481.459,5989.574,957.049,51.205,-232.303,-228.371
260.0,-165.0,4054.0,98.207,110.763,2.705,616.11,2298.624,-139.202,-90.0,0.0,0.0,1500,0.0,0,2519.76,-41448.6,5.782,0,-0.803,9.1,2.486,-0.582,-0.456,-2.891,456.084,5146.2,1174.624,72.279,-62.641,-223.253
-288.0,98.0,2883.0,-86.894,-111.275,-5.329,616.109,2298.623,-139.203,-90.0,0.0,0.0,1500,0.0,0,2520.428,-40415.58,5.638,0,-0.846,9.576,2.478,-0.402,-1.15,-2.946,480.444,5415.189,1170.681,49.844,-157.88,-227.487
274.0,-155.0,4004.0,94.656,116.814,2.315,616.114,2298.627,-139.205,-90.0,0.0,0.0,1500,0.0,0,2520.58,-39604.35,5.525,0,-0.831,9.476,2.467,-0.608,-0.528,-2.891,471.647,5358.897,1165.892,75.535,-72.46,-223.216
-290.0,102.0,2841.0,-82.137,-126.147,-3.249,616.112,2298.625,-139.205,-90.0,0.0,0.0,1500,0.0,0,2520.943,-39343.05,5.489,0,-0.865,9.573,2.358,-0.364,-0.951,-2.93,490.764,5413.841,1114.21,45.226,-130.585,-226.235
300.0,-113.0,3929.0,83.987,125.997,4.242,616.117,2298.629,-139.207,-90.0,0.0,0.0,1500,0.0,0,2521.286,-38209.77,5.331,0,-0.87,9.401,2.43,-0.604,-0.364,-2.873,493.64,5316.594,1148.289,74.943,-50.008,-221.854
-210.0,175.0,2885.0,-116.22,-66.172,-2.242,616.115,2298.627,-139.207,-90.0,0.0,0.0,1500,0.0,0,2520.714,-38264.46,5.338,0,-0.875,9.524,2.38,-0.336,-0.75,-2.928,496.515,5385.864,1124.49,41.675,-102.897,-226.088
-inf,-inf,-inf,-inf,-inf,-inf,616.119,2298.63,-139.208,-90.0,0.0,0.0,1500,0.0,0,2520.599,-37732.75,5.264,0,-0.867,9.295,2.411,-0.619,-0.306,-2.855,492.286,5256.593,1139.136,76.837,-42.023,-220.454
-inf,-inf,-inf,-inf,-inf,-inf,616.114,2298.627,-139.209,-90.0,0.0,0.0,1500,0.0,0,2520.485,-36854.68,5.142,0,-0.878,9.42,2.351,-0.36,-0.738,-2.919,498.376,5327.212,1110.689,44.694,-101.326,-225.425
-inf,-inf,-inf,-inf,-inf,-inf,616.118,2298.631,-139.21,-90.0,0.0,0.0,1500,0.0,0,2519.989,-38419.41,5.36,0,-0.905,9.283,2.349,-0.575,-0.206,-2.839,513.771,5249.852,1109.844,71.391,-28.342,-219.239
-inf,-inf,-inf,-inf,-inf,-inf,616.113,2298.628,-139.21,-90.0,0.0,0.0,1500,0.0,0,2519.817,-37401.57,5.218,0,-0.909,9.342,2.254,-0.357,-0.671,-2.902,515.801,5283.054,1064.921,44.279,-92.096,-224.1
-inf,-inf,-inf,-inf,-inf,-inf,616.115,2298.633,-139.211,-90.0,0.0,0.0,1500,0.0,0,2519.703,-38774.89,5.409,0,-0.9,9.191,2.324,-0.679,-0.151,-2.806,510.895,5197.604,1098.156,84.237,-20.684,-216.662
-inf,-inf,-inf,-inf,-inf,-inf,616.11,2298.629,-139.211,-90.0,0.0,0.0,1500,0.0,0,2520.027,-37425.88,5.221,0,-0.912,9.25,2.199,-0.331,-0.642,-2.877,517.493,5231.144,1039.291,41.142,-88.104,-222.185
-inf,-inf,-inf,-inf,-inf,-inf,616.114,2298.634,-139.212,-90.0,0.0,0.0,1500,0.0,0,2520.199,-36933.68,5.153,0,-0.913,9.068,2.259,-0.636,-0.049,-2.784,518.508,5128.166,1067.315,78.969,-6.677,-214.968
-inf,-inf,-inf,-inf,-inf,-inf,616.108,2298.63,-139.212,-90.0,0.0,0.0,1500,0.0,0,2520.294,-37459.3,5.226,0,-0.939,9.136,2.146,-0.373,-0.637,-2.858,532.718,5166.425,1014.224,46.351,-87.449,-220.712
-inf,-inf,-inf,-inf,-inf,-inf,616.111,2298.633,-139.213,-90.0,0.0,0.0,1500,0.0,0,2520.104,-36541.73,5.098,0,-0.931,9.019,2.151,-0.574,-0.092,-2.783,528.319,5100.188,1016.195,71.273,-12.568,-214.931
-inf,-inf,-inf,-inf,-inf,-inf,616.106,2298.629,-139.213,-90.0,0.0,0.0,1500,0.0,0,2520.18,-36775.68,5.131,0,-0.941,9.02,2.165,-0.361,-0.545,-2.867,534.41,5100.863,1022.955,44.871,-74.751,-221.375
-inf,-inf,-inf,-inf,-inf,-inf,616.108,2298.633,-139.214,-90.0,0.0,0.0,1500,0.0,0,2520.199,-36450.59,5.085,0,-0.962,8.878,2.119,-0.549,-0.07,-2.772,546.082,5020.469,1001.409,68.195,-9.622,-214.047
-inf,-inf,-inf,-inf,-inf,-inf,616.104,2298.628,-139.214,-90.0,0.0,0.0,1500,0.0,0,2520.065,-35581.63,4.964,0,-0.958,8.871,2.128,-0.305,-0.457,-2.842,543.883,5016.761,1005.492,37.886,-62.772,-219.423
199.0,-25.0,3472.0,45.645,96.828,3.418,616.106,2298.634,-139.215,-90.0,0.0,0.0,1500,0.0,0,2519.989,-36799.99,5.134,0,-0.978,8.868,2.1,-0.64,-0.032,-2.749,554.879,5014.739,992.114,79.501,-4.451,-212.28
-228.0,25.0,2683.0,-37.036,-109.664,-5.171,616.101,2298.629,-141.215,-90.0,0.0,0.0,1500,0.0,0,2520.18,-35147.15,4.903,0,-0.965,8.799,2.064,-0.36,-0.446,-2.825,547.774,4976.143,975.497,44.694,-61.201,-218.135
206.0,-8.0,3381.0,33.244,106.253,3.999,616.103,2298.634,-141.216,-90.0,0.0,0.0,1500,0.001,0,2520.046,-36806.07,5.135,0,-1.006,8.744,2.093,-0.645,-0.045,-2.735,570.95,4944.626,989.016,80.093,-6.218,-211.212
-203.0,17.0,2643.0,-29.781,-96.829,-6.436,616.097,2298.629,-141.216,-90.0,0.0,0.0,1500,0.008,0,2519.932,-35885.46,5.006,0,-0.98,9.171,1.972,-0.304,-0.41,-2.823,556.063,5186.312,931.841,37.768,-56.292,-218.024
207.0,-12.0,3543.0,32.51,102.021,5.303,616.079,2298.627,-141.299,-90.0,0.0,0.0,1500,0.028,0,2519.741,-35985.72,5.02,0,-1.058,17.135,3.53,-0.649,-0.256,-2.721,600.724,9690.206,1667.935,80.626,-35.084,-210.144
-193.0,-25.0,3120.0,-31.049,-96.634,-7.27,616.033,2298.607,-141.408,-90.0,-0.01,-0.01,1500,0.065,0,2520.065,-36593.39,5.105,0,-0.958,-0.843,4.717,-0.252,-1.87,-2.802,544.052,-476.463,2228.842,31.315,-256.653,-216.33
223.0,3.0,3839.0,0.626,108.4,6.568,616.04,2298.615,-141.384,-90.0,0.0,0.0,1500,0.128,0,2519.436,-36927.6,5.152,0,-1.06,13.684,2.99,-0.711,-1.622,-2.707,601.739,7738.345,1412.9,88.322,-222.681,-209.04
-166.0,-14.0,3198.0,-15.147,-91.012,-7.32,616.024,2298.604,-141.48,-90.0,0.0,0.0,1500,0.22,0,2519.55,-37258.78,5.198,0,-0.992,8.821,3.125,-0.187,-2.208,-2.783,563.169,4988.446,1476.412,23.264,-303.061,-214.931
208.0,6.0,3789.0,19.242,108.165,5.124,616.043,2298.615,-141.541,-90.0,0.0,0.0,1500,0.35,0,2519.455,-38577.4,5.382,0,-1.053,13.257,2.688,-0.637,-0.994,-2.692,597.849,7496.996,1270.103,79.028,-136.476,-207.898
-123.0,-50.0,3600.0,-16.166,-82.302,-6.849,616.027,2298.604,-141.65,-90.0,0.0,0.0,1500,0.523,0,2519.665,-37286.12,5.202,0,-0.967,9.396,3.553,-0.16,-2.004,-2.776,549.127,5313.56,1679.06,19.831,-275.111,-214.379
179.0,-16.0,4329.0,-14.123,81.242,5.988,616.036,2298.611,-141.71,-90.0,0.0,0.0,1500,0.744,0,2519.245,-40938.17,5.711,0,-0.963,13.276,2.828,-0.578,-1.614,-2.731,546.421,7507.613,1336.291,71.747,-221.568,-210.917
-68.0,-116.0,4053.0,3.275,-69.428,-8.454,616.02,2298.603,-141.806,-90.0,-0.01,0.0,1500,1.021,0,2520.046,-46112.41,6.433,0,-0.724,8.802,3.857,-0.342,-2.531,-2.831,410.746,4977.66,1822.42,42.444,-347.44,-218.576
143.0,39.0,4256.0,-20.451,74.763,1.649,616.03,2298.61,-141.853,-90.0,0.0,0.0,1500,1.358,0,2521.267,-68705.27,9.585,0,-0.577,14.174,3.561,-0.59,-2.277,-2.82,327.345,8015.593,1682.862,73.226,-312.618,-217.73
-65.0,-155.0,4220.0,36.21,-58.421,-15.818,616.022,2298.604,-141.948,-90.0,-0.01,0.0,1500,1.764,0,2531.681,-98860.48,13.792,0,-0.288,9.3,3.922,-0.472,-2.131,-2.959,163.25,5258.953,1853.12,58.546,-292.523,-228.518
79.0,86.0,4445.0,-64.223,31.971,-7.292,616.041,2298.612,-141.998,-90.0,0.0,0.0,1500,2.242,0,2553.158,-138379.8,19.305,0,-0.055,15.502,3.864,-0.73,-1.809,-2.981,30.958,8766.271,1825.8,90.63,-248.34,-230.212
39.0,-245.0,4764.0,54.974,-30.909,-24.739,616.039,2298.607,-142.086,-90.0,-0.01,0.0,1500,2.801,0,2589.817,-179512.4,25.043,0,0.333,8.606,5.091,-0.666,-1.924,-3.167,-189.133,4866.761,2405.718,82.698,-264.049,-244.536
-11.0,101.0,4494.0,-109.828,10.616,-16.347,616.047,2298.614,-142.119,-90.0,-0.01,0.0,1500,3.444,0,2642.04,-216424.8,30.193,0,0.734,17.062,4.31,-0.938,-2.482,-3.205,-416.836,9648.577,2036.333,116.44,-340.698,-247.519
180.0,-293.0,4912.0,141.114,28.076,-30.181,616.04,2298.615,-142.202,-90.0,-0.01,0.0,1500,4.172,0,2709.407,-249162.5,34.76,0,1.143,8.818,5.021,-1.115,-1.873,-3.511,-648.769,4986.424,2372.483,138.402,-257.045,-271.085
-185.0,107.0,4352.0,-146.65,-97.577,-23.906,616.044,2298.623,-142.239,-90.0,-0.01,0.0,1500,4.987,0,2789.459,-269069.6,37.537,0,1.29,19.229,3.645,-1.225,-2.353,-3.428,-732.17,10874.2,1722.293,152.077,-323.025,-264.715
290.0,-269.0,5324.0,127.19,112.25,-30.12,616.043,2298.633,-142.328,-90.0,-0.01,0.0,1500,5.887,0,2879.486,-272360.0,37.996,0,1.454,7.448,5.41,-1.774,-1.57,-3.593,-825.044,4211.983,2556.542,220.271,-215.481,-277.455
-123.0,-35.0,4548.0,-83.709,-108.368,-21.934,616.034,2298.641,-142.364,-90.0,-0.01,0.0,1500,6.873,0,2970.924,-258557.0,36.071,0,1.465,18.981,3.903,-1.43,-2.712,-3.451,-831.642,10733.81,1844.107,177.472,-372.248,-266.519
104.0,-36.0,4949.0,-11.373,57.195,-21.711,616.035,2298.655,-142.43,-90.0,-0.01,0.0,1500,7.945,0,3057.861,-220897.2,30.817,0,1.806,9.154,5.453,-2.168,-1.976,-3.494,-1025.004,5176.874,2576.68,269.168,-271.249,-269.833
179.0,-192.0,4980.0,76.414,48.777,-16.184,616.03,2298.657,-142.477,-90.0,-0.01,0.0,1500,9.102,0,3131.771,-173496.5,24.204,0,1.777,17.769,3.8,-1.648,-2.109,-3.529,-1008.764,10048.69,1795.663,204.584,-289.446,-272.521
-211.0,-20.0,4622.0,-80.773,-113.017,-6.553,616.03,2298.657,-142.539,-90.0,-0.02,0.0,1500,10.345,0,3186.531,-121313.6,16.924,0,2.272,13.483,4.167,-1.684,-2.203,-3.814,-1289.756,7624.917,1969.019,209.083,-302.341,-294.541
228.0,-77.0,5072.0,68.534,104.116,-5.042,616.026,2298.665,-142.603,-90.0,-0.02,0.0,1500,11.674,0,3220.539,-78348.86,10.93,0,2.605,11.742,4.416,-2.598,-1.95,-3.957,-1478.381,6640.307,2086.608,322.504,-267.715,-305.587
-21.0,-62.0,4782.0,-26.042,-48.135,4.438,616.025,2298.66,-142.652,-90.0,-0.03,0.0,1500,13.089,0,3235.722,-46796.02,6.528,0,2.105,16.631,3.221,-1.216,-1.976,-4.099,-1194.851,9405.205,1521.758,151.011,-271.184,-316.56
-125.0,-29.0,4766.0,-7.522,-64.023,-3.057,616.023,2298.667,-142.716,-90.0,-0.03,0.0,1500,14.578,0,3234.997,-22881.5,3.192,0,2.804,12.31,2.791,-2.027,-1.773,-4.187,-1591.387,6961.544,1318.829,251.646,-243.431,-323.336
233.0,4.0,4925.0,26.09,123.077,4.661,616.02,2298.665,-142.782,-90.0,-0.04,0.0,1500,16.123,0,3225.632,-13787.84,1.924,0,2.718,12.698,1.925,-2.153,-1.533,-4.105,-1542.835,7180.814,909.731,267.273,-210.375,-316.965
-146.0,-52.0,4756.0,-11.516,-108.819,4.148,616.02,2298.665,-142.834,-90.0,-0.04,0.0,1500,17.715,0,3209.686,-15705.02,2.191,0,2.661,16.146,0.881,-1.279,-1.422,-4.269,-1510.354,9130.485,416.28,158.766,-195.255,-329.669
14.0,-5.0,4735.0,-2.221,19.197,-6.464,616.019,2298.686,-142.9,-90.0,-0.05,0.0,1500,19.35,0,3193.855,-29939.49,4.177,0,2.993,12.007,1.366,-2.855,-1.098,-4.306,-1698.641,6789.802,645.261,354.411,-150.745,-332.504
197.0,-19.0,4912.0,26.824,87.842,-3.67,616.026,2298.697,-142.953,-90.0,-0.06,0.0,1500,21.022,0,3183.002,-48959.3,6.83,0,2.644,15.053,0.597,-2.425,-0.675,-4.294,-1500.542,8512.786,281.932,301.016,-92.62,-331.584
-176.0,-49.0,4707.0,-19.627,-116.45,-2.358,616.042,2298.7,-143.01,-90.0,-0.07,0.0,1500,22.723,0,3178.883,-63704.21,8.887,0,2.942,15.216,0.401,-1.59,-0.204,-4.41,-1670.051,8604.978,189.692,197.362,-28.015,-340.568
98.0,2.0,4722.0,1.369,61.858,-7.334,616.062,2298.711,-143.071,-90.0,-0.08,0.0,1500,24.448,0,3180.847,-74392.98,10.378,0,3.264,12.589,0.801,-2.673,0.185,-4.643,-1852.586,7119.297,378.398,331.857,25.331,-358.538
113.0,-53.0,4854.0,14.686,12.998,-6.612,616.076,2298.718,-143.129,-90.0,-0.09,0.0,1500,26.192,0,3187.275,-76373.96,10.655,0,2.706,14.987,0.23,-1.895,0.524,-4.798,-1535.73,8475.201,108.576,235.248,71.936,-370.468
-123.0,-69.0,4710.0,-27.627,-86.79,-5.4,616.084,2298.725,-143.19,-90.0,-0.1,0.0,1500,27.947,0,3194.79,-72642.91,10.134,0,3.019,13.844,0.213,-2.074,0.652,-4.998,-1713.697,7829.019,100.831,257.506,89.478,-385.97
166.0,-29.0,4770.0,11.261,75.41,-3.627,616.089,2298.731,-143.252,-89.99,-0.12,0.0,1500,29.707,0,3200.035,-67356.26,9.397,0,3.371,12.439,0.069,-2.703,0.806,-5.163,-1913.657,7034.522,32.531,335.527,110.621,-398.674
39.0,-74.0,4783.0,5.357,-32.778,-2.173,616.101,2298.727,-143.311,-89.99,-0.13,0.0,1500,31.467,0,3204.327,-59575.15,8.311,0,2.832,14.839,-0.588,-1.581,1.333,-5.227,-1607.627,8391.774,-277.989,196.237,183.015,-403.645
-50.0,-65.0,4709.0,-14.341,-49.18,-7.041,616.111,2298.731,-143.371,-89.99,-0.15,0.0,1500,33.22,0,3204.384,-56558.11,7.89,0,3.368,13.096,0.298,-1.982,1.259,-5.132,-1911.627,7405.647,140.825,246.081,172.869,-396.28
181.0,-30.0,4803.0,6.189,76.345,-1.69,616.115,2298.742,-143.428,-89.99,-0.16,0.0,1500,34.961,0,3201.999,-57111.08,7.967,0,2.906,13.74,0.173,-2.677,1.381,-4.979,-1649.751,7770.199,81.819,332.272,189.56,-384.46
-14.0,-77.0,4826.0,-2.831,-57.591,-1.047,616.117,2298.737,-143.486,-89.99,-0.18,0.0,1500,36.683,0,3197.193,-61629.05,8.598,0,3.152,14.779,-0.112,-1.529,1.353,-5.265,-1788.978,8357.393,-53.091,189.844,185.764,-406.554
36.0,-49.0,4699.0,8.151,-8.019,-7.282,616.116,2298.734,-143.547,-89.99,-0.2,0.0,1500,38.39,0,3193.302,-71154.14,9.927,0,3.435,13.402,0.297,-2.262,1.149,-5.507,-1950.028,7578.906,140.544,280.77,157.749,-425.259
128.0,-23.0,4874.0,3.266,48.327,-4.908,616.117,2298.735,-143.607,-89.99,-0.22,0.0,1500,40.097,0,3191.662,-76595.75,10.686,0,3.204,13.946,0.071,-2.069,1.401,-5.432,-1818.414,7886.829,33.516,256.855,192.375,-419.441
-11.0,-59.0,4905.0,-3.505,-54.385,-3.956,616.118,2298.732,-143.669,-89.99,-0.24,0.0,1500,41.805,0,3191.833,-83978.84,11.716,0,2.865,14.696,-0.156,-1.541,1.52,-5.191,-1626.067,8310.875,-73.511,191.324,208.674,-400.846
59.0,-32.0,4907.0,-1.661,6.843,-7.956,616.118,2298.738,-143.73,-89.99,-0.26,0.0,1500,43.512,0,3193.798,-85379.5,11.911,0,3.33,13.215,0.051,-2.356,1.498,-5.215,-1889.973,7473.231,24.081,292.432,205.597,-402.724
94.0,-63.0,5032.0,18.09,17.867,-5.707,616.125,2298.738,-143.783,-89.99,-0.28,0.0,1500,45.219,0,3195.572,-87773.69,12.245,0,3.108,15.035,0.282,-1.994,1.697,-5.265,-1763.941,8502.337,133.08,247.561,232.958,-406.591
10.0,-48.0,5084.0,-14.674,-29.859,-5.165,616.127,2298.744,-143.839,-89.99,-0.31,0.0,1500,46.927,0,3198.299,-89538.95,12.491,0,3.094,15.407,0.17,-2.08,1.744,-5.159,-1756.159,8712.675,80.552,258.216,239.372,-398.342
75.0,-44.0,5105.0,2.187,12.507,-6.974,616.128,2298.744,-143.899,-89.99,-0.33,0.0,1500,48.634,0,3198.91,-87001.96,12.137,0,3.206,14.203,0.484,-2.16,1.759,-5.015,-1819.598,8031.773,228.7,268.161,241.467,-387.259
69.0,-73.0,5353.0,-0.96,1.739,-3.713,616.121,2298.744,-143.958,-89.99,-0.36,0.0,1500,50.341,0,3200.512,-89663.52,12.509,0,3.17,14.595,0.039,-2.132,1.567,-5.337,-1799.297,8253.403,18.448,264.61,215.088,-412.114
37.0,-73.0,5361.0,-5.016,-26.274,-6.03,616.114,2298.742,-144.011,-89.99,-0.39,0.0,1500,52.048,0,3200.188,-86886.51,12.121,0,3.072,15.084,0.4,-1.971,1.241,-5.501,-1743.64,8530.146,188.847,244.72,170.382,-424.781
88.0,-74.0,5443.0,0.437,17.122,-5.943,616.114,2298.745,-144.058,-89.99,-0.41,0.0,1500,53.755,0,3199.692,-88627.45,12.364,0,3.172,15.175,0.77,-2.271,1.464,-5.334,-1800.651,8581.55,363.752,281.954,200.95,-411.893
74.0,-87.0,5565.0,1.48,-6.661,-4.228,616.119,2298.742,-144.107,-89.99,-0.44,0.0,1500,55.461,0,3199.73,-90644.89,12.646,0,2.934,16.249,0.857,-1.854,1.622,-5.501,-1665.314,9189.137,405.154,230.216,222.681,-424.818
56.0,-90.0,5648.0,-6.432,-12.399,-5.116,616.114,2298.744,-144.158,-89.99,-0.47,0.0,1500,57.165,0,3200.436,-88123.09,12.294,0,3.24,16.036,0.753,-2.162,1.369,-5.521,-1838.883,9068.462,355.725,268.339,187.924,-426.29
94.0,-93.0,5766.0,-1.199,7.238,-5.323,616.107,2298.741,-144.209,-89.99,-0.5,0.0,1500,58.865,0,3200.34,-88381.35,12.33,0,3.137,15.207,1.059,-2.289,1.122,-5.45,-1780.52,8599.584,500.211,284.145,154.018,-420.878
73.0,-104.0,5892.0,-2.236,-8.474,-3.686,616.102,2298.74,-144.25,-89.99,-0.54,0.0,1500,60.56,0,3201.504,-88426.93,12.336,0,3.173,16.71,1.187,-1.943,1.009,-5.729,-1801.158,9449.7,560.907,241.168,138.439,-442.418
71.0,-96.0,5893.0,-8.323,-9.366,-4.495,616.101,2298.741,-144.291,-89.99,-0.57,0.0,1500,62.251,0,3200.836,-85801.83,11.97,0,3.028,16.791,1.183,-2.308,1.203,-5.602,-1718.772,9495.711,558.936,286.572,165.145,-432.587
93.0,-95.0,6002.0,-1.802,5.267,-4.546,616.103,2298.744,-144.334,-89.99,-0.6,0.0,1500,63.935,0,3201.008,-87725.08,12.238,0,3.191,16.785,1.188,-2.208,1.398,-5.51,-1811.139,9491.835,561.33,274.14,191.917,-425.517
85.0,-121.0,6137.0,4.391,-8.59,-3.698,616.1,2298.737,-144.378,-89.99,-0.64,0.0,1500,65.611,0,3201.656,-84835.65,11.835,0,3.212,16.457,1.292,-2.052,1.124,-5.562,-1823.489,9306.44,610.337,254.783,154.345,-429.457
78.0,-100.0,6159.0,-14.331,-9.833,-4.241,616.095,2298.74,-144.415,-89.99,-0.67,0.0,1500,67.28,0,3200.741,-85139.48,11.878,0,3.201,17.097,1.608,-2.248,0.999,-5.383,-1817.06,9668.465,759.752,279.113,137.065,-415.686
110.0,-121.0,6269.0,2.136,6.416,-4.457,616.098,2298.74,-144.448,-89.99,-0.71,0.0,1500,68.938,0,3200.97,-85254.93,11.894,0,3.132,17.37,1.773,-2.361,1.248,-5.549,-1777.644,9823.016,837.629,293.143,171.298,-428.5
77.0,-120.0,6289.0,0.012,-15.675,-4.225,616.096,2298.742,-144.481,-89.99,-0.75,0.0,1500,70.586,0,3200.035,-84662.46,11.811,0,3.145,18.127,1.893,-2.123,1.006,-5.592,-1785.256,10250.94,894.663,263.544,138.112,-431.777
97.0,-96.0,6347.0,-8.963,-1.107,-4.099,616.09,2298.739,-144.519,-89.99,-0.79,0.0,1500,72.222,0,3200.226,-85321.77,11.903,0,3.131,17.267,1.643,-2.252,0.937,-5.66,-1777.136,9764.364,776.511,279.586,128.555,-437.079
104.0,-129.0,6508.0,2.79,-2.05,-4.459,616.093,2298.74,-144.551,-89.99,-0.83,0.0,1500,73.844,0,3200.321,-84255.33,11.754,0,3.154,18.067,2.055,-2.187,1.303,-5.405,-1790.501,10216.89,971.131,271.476,178.826,-417.379
82.0,-104.0,6527.0,-16.922,-15.915,-3.229,616.094,2298.739,-144.58,-89.99,-0.87,0.0,1500,75.451,0,3200.436,-84513.59,11.79,0,3.128,18.363,2.262,-2.328,1.02,-5.553,-1775.444,10384.59,1068.723,289.058,140.01,-428.794
110.0,-117.0,6565.0,4.451,1.566,-4.664,616.088,2298.737,-144.61,-89.99,-0.91,0.0,1500,77.043,0,3199.844,-84738.42,11.822,0,3.204,17.905,2.192,-2.468,0.896,-5.608,-1818.752,10125.38,1035.629,306.403,122.926,-433.029
91.0,-122.0,6653.0,-4.296,-8.354,-3.783,616.089,2298.736,-144.642,-89.99,-0.96,0.0,1500,78.619,0,3199.692,-84416.36,11.777,0,3.142,17.824,2.208,-2.321,1.184,-5.626,-1783.734,10079.37,1043.375,288.111,162.527,-434.465
93.0,-125.0,6674.0,-1.026,-14.219,-4.558,616.088,2298.734,-144.667,-89.99,-1.0,0.0,1500,80.178,0,3199.921,-85461.54,11.923,0,3.152,19.014,2.234,-2.278,1.007,-5.533,-1789.147,10752.68,1055.767,282.783,138.243,-427.285
109.0,-115.0,6776.0,-7.771,-1.01,-4.768,616.084,2298.732,-144.693,-89.99,-1.04,0.0,1500,81.721,0,3200.283,-83836.04,11.696,0,3.148,18.377,2.551,-2.157,0.935,-5.622,-1786.948,10392.51,1205.464,267.747,128.294,-434.097
107.0,-135.0,6843.0,-0.555,-9.691,-4.131,616.086,2298.73,-144.719,-89.99,-1.09,0.0,1500,83.247,0,3200.913,-83681.09,11.674,0,2.969,18.631,2.523,-2.239,1.043,-5.541,-1685.276,10536.11,1192.368,277.988,143.152,-427.911
101.0,-114.0,6850.0,-12.242,-7.169,-3.439,616.083,2298.73,-144.741,-89.99,-1.14,0.0,1500,84.756,0,3201.637,-79688.75,11.117,0,3.17,18.971,2.678,-2.272,0.816,-5.593,-1799.128,10728.41,1265.174,282.014,111.995,-431.887
117.0,-128.0,6912.0,-0.455,-3.459,-3.423,616.086,2298.727,-144.764,-89.99,-1.19,0.0,1500,86.248,0,3201.637,-79992.59,11.16,0,3.0,19.031,2.433,-2.236,1.232,-5.393,-1702.87,10761.95,1149.698,277.633,169.073,-416.459
111.0,-136.0,7001.0,-5.149,-6.466,-3.14,616.084,2298.724,-144.789,-89.99,-1.23,0.0,1500,87.721,0,3201.16,-80108.04,11.176,0,3.205,18.615,2.693,-2.134,0.931,-5.653,-1819.26,10526.67,1272.638,264.965,127.77,-436.49
119.0,-122.0,6979.0,-4.378,-4.744,-3.874,616.082,2298.721,-144.81,-89.99,-1.28,0.0,1500,89.095,0,3200.302,-78977.79,11.018,0,3.057,19.038,2.83,-2.26,0.97,-5.679,-1735.182,10766.17,1337.136,280.534,133.137,-438.552
124.0,-132.0,7087.0,-3.928,-3.076,-3.222,616.083,2298.72,-144.827,-89.99,-1.33,0.0,1500,90.214,0,3200.264,-80117.16,11.177,0,3.119,19.398,2.969,-2.287,1.032,-5.587,-1770.538,10969.59,1403.042,283.908,141.647,-431.409
117.0,-129.0,7087.0,-4.308,-11.213,-3.459,616.079,2298.717,-144.848,-89.99,-1.39,0.0,1500,91.143,0,3199.749,-78254.67,10.917,0,3.063,19.481,2.659,-2.143,0.917,-5.69,-1738.396,11016.78,1256.443,266.09,125.872,-439.362
127.0,-129.0,7141.0,-5.604,-4.038,-3.238,616.082,2298.71,-144.868,-89.99,-1.44,0.0,1500,91.922,0,3199.692,-78576.73,10.962,0,2.972,19.222,3.198,-2.093,0.975,-5.741,-1687.137,10869.99,1511.337,259.874,133.792,-443.339
128.0,-131.0,7155.0,-2.156,-9.949,-3.276,616.082,2298.702,-144.881,-89.99,-1.49,0.0,1500,92.556,0,3199.52,-81560.35,11.378,0,2.961,20.057,3.059,-2.094,0.853,-5.773,-1680.54,11342.57,1445.431,259.933,117.035,-445.769
129.0,-137.0,7223.0,-7.036,-7.937,-3.9,616.086,2298.693,-144.9,-89.99,-1.55,0.0,1500,93.051,0,3198.624,-80509.09,11.232,0,2.88,19.124,3.324,-2.081,1.007,-5.752,-1635.033,10814.71,1570.765,258.276,138.177,-444.149
135.0,-137.0,7242.0,-4.873,-8.03,-3.991,616.081,2298.687,-144.916,-89.99,-1.6,0.0,1500,93.412,0,3198.738,-81858.1,11.42,0,2.873,19.831,3.214,-2.067,0.767,-5.799,-1630.804,11214.82,1518.66,256.618,105.253,-447.795
138.0,-143.0,7309.0,-5.875,-7.433,-3.454,616.086,2298.678,-144.927,-89.99,-1.66,0.0,1500,93.645,0,3200.302,-79485.19,11.089,0,2.714,19.908,3.501,-1.898,0.86,-5.637,-1540.467,11258.3,1654.275,235.603,118.017,-435.312
137.0,-138.0,7284.0,-2.015,-9.275,-3.015,616.083,2298.67,-144.943,-89.99,-1.71,0.0,1500,93.754,0,3201.656,-77434.33,10.803,0,2.714,19.479,3.489,-2.026,0.715,-5.548,-1540.805,11015.77,1648.782,251.468,98.184,-428.389
144.0,-140.0,7344.0,-3.794,-5.103,-3.079,616.084,2298.662,-144.955,-89.99,-1.77,0.0,1500,93.746,0,3200.512,-78391.39,10.936,0,2.435,20.072,3.294,-1.913,0.879,-5.682,-1381.954,11350.83,1556.683,237.498,120.701,-438.736
141.0,-140.0,7358.0,-2.185,-13.692,-3.357,616.087,2298.647,-144.966,-90.0,-1.82,0.0,1500,93.625,0,3201.389,-77206.45,10.771,0,1.863,19.84,3.755,-1.974,0.696,-5.641,-1057.485,11219.54,1774.258,245.075,95.566,-435.606
140.0,-135.0,7405.0,-6.41,-9.453,-3.358,616.095,2298.615,-144.977,-90.0,-1.88,0.0,1500,93.397,0,3199.386,-77255.07,10.778,0,1.787,18.901,3.87,-1.786,0.686,-5.408,-1014.516,10688.47,1828.475,221.751,94.126,-417.6
136.0,-132.0,7394.0,-2.5,-8.356,-3.618,616.103,2298.573,-144.98,-90.0,-1.94,0.0,1500,93.067,0,3200.245,-78291.13,10.922,0,1.717,20.019,4.188,-1.66,0.377,-5.363,-974.591,11320.83,1979.018,206.064,51.71,-414.139
125.0,-139.0,7416.0,-1.673,-9.385,-2.657,616.112,2298.539,-144.985,-90.0,-1.99,0.0,1500,92.64,0,3198.948,-77741.2,10.846,0,1.537,19.771,4.339,-1.5,0.459,-5.198,-872.412,11180.77,2050.416,186.174,62.969,-401.399
115.0,-137.0,7421.0,-3.844,-8.904,-3.275,616.119,2298.506,-144.994,-90.0,-2.04,0.0,1500,92.199,0,3199.215,-79864.98,11.142,0,1.119,18.915,4.46,-1.392,0.301,-4.857,-635.404,10696.56,2107.31,172.795,41.303,-375.071
106.0,-140.0,7445.0,-6.801,-5.584,-2.828,616.128,2298.48,-144.994,-90.0,-2.09,0.0,1500,91.904,0,3199.596,-77416.09,10.8,0,0.97,19.968,4.676,-1.269,0.394,-4.701,-550.481,11292.18,2209.408,157.582,54.132,-362.993
103.0,-142.0,7437.0,-1.614,-6.858,-3.167,616.131,2298.454,-144.998,-90.0,-2.14,0.0,1500,91.714,0,3200.645,-77364.45,10.793,0,0.763,19.369,4.49,-1.322,0.15,-4.457,-433.246,10953.25,2121.674,164.153,20.619,-344.14
91.0,-136.0,7441.0,-5.827,-8.767,-2.91,616.138,2298.439,-145.002,-90.0,-2.19,0.0,1500,91.619,0,3200.455,-76027.59,10.606,0,0.655,18.736,4.847,-1.343,0.312,-4.368,-372.006,10595.27,2290.523,166.757,42.808,-337.328
100.0,-133.0,7438.0,-1.861,-5.147,-2.816,616.143,2298.425,-145.0,-90.0,-2.23,0.0,1500,91.643,0,3200.931,-74329.17,10.37,0,0.657,19.44,4.965,-1.316,0.244,-4.048,-372.683,10993.36,2346.008,163.324,33.513,-312.583
96.0,-137.0,7437.0,-0.465,-10.122,-2.725,616.148,2298.413,-144.999,-90.0,-2.27,0.0,1500,91.802,0,3200.798,-74876.07,10.446,0,0.403,19.588,4.979,-1.173,0.34,-4.236,-228.719,11077.29,2352.627,145.624,46.736,-327.091
96.0,-122.0,7440.0,-5.374,-10.648,-3.249,616.15,2298.405,-145.001,-90.01,-2.31,0.0,1500,92.112,0,3200.684,-72852.55,10.164,0,0.251,18.794,4.812,-1.145,0.262,-3.998,-142.272,10628.3,2273.624,142.131,36.001,-308.754
94.0,-123.0,7410.0,1.071,-5.421,-2.848,616.15,2298.392,-145.002,-90.01,-2.35,0.0,1500,92.59,0,3200.264,-74645.16,10.414,0,0.176,18.839,4.744,-1.106,0.121,-4.004,-99.98,10653.58,2241.798,137.337,16.56,-309.196
83.0,-121.0,7414.0,-4.539,-8.829,-3.11,616.156,2298.384,-144.996,-90.01,-2.39,0.0,1500,93.251,0,3200.264,-72138.55,10.064,0,0.205,19.867,4.894,-1.245,0.322,-3.712,-116.22,11234.88,2312.633,154.563,44.248,-286.661
78.0,-121.0,7380.0,-0.915,-6.594,-2.629,616.163,2298.373,-144.993,-90.01,-2.42,0.0,1500,94.111,0,3200.15,-72436.31,10.105,0,0.22,19.551,4.78,-1.255,0.418,-3.876,-124.679,11056.05,2258.837,155.747,57.339,-299.291
70.0,-125.0,7397.0,-3.64,-2.433,-2.588,616.164,2298.362,-144.992,-90.01,-2.45,0.0,1500,95.187,0,3200.626,-72664.18,10.137,0,0.341,18.833,4.934,-1.172,0.15,-3.808,-193.362,10650.38,2331.363,145.506,20.553,-294.025
62.0,-119.0,7381.0,-6.191,-10.347,-2.77,616.172,2298.352,-144.991,-90.01,-2.48,0.0,1500,96.493,0,3199.501,-71977.52,10.041,0,0.308,18.768,5.099,-1.367,0.469,-3.711,-175.091,10613.47,2409.521,169.658,64.343,-286.587
67.0,-126.0,7389.0,-2.164,-1.055,-2.761,616.177,2298.342,-144.988,-90.01,-2.51,0.0,1500,98.047,0,3199.253,-75240.67,10.497,0,0.395,19.073,4.597,-1.199,0.416,-3.821,-224.151,10786.05,2172.23,148.88,57.143,-295.093
56.0,-122.0,7315.0,-0.755,-6.095,-2.836,616.18,2298.334,-144.981,-90.01,-2.54,0.0,1500,99.865,0,3198.166,-73757.98,10.29,0,0.163,19.854,4.883,-1.43,0.299,-3.697,-92.536,11227.63,2307.141,177.472,40.975,-285.482
53.0,-116.0,7339.0,-4.946,-4.769,-2.817,616.184,2298.322,-144.978,-90.01,-2.56,0.0,1500,101.967,0,3199.196,-74733.27,10.426,0,0.304,19.458,4.75,-1.187,0.325,-3.444,-172.554,11003.47,2244.333,147.341,44.641,-265.967
53.0,-122.0,7330.0,-2.601,-7.218,-2.889,616.19,2298.312,-144.977,-90.01,-2.59,0.0,1500,104.369,0,3199.291,-75599.19,10.547,0,0.173,19.381,4.626,-1.473,0.538,-3.594,-98.119,10959.99,2185.89,182.859,73.834,-277.529
46.0,-124.0,7347.0,-6.871,-4.472,-2.914,616.196,2298.302,-144.975,-90.0,-2.61,0.0,1500,107.073,0,3199.978,-73982.8,10.321,0,0.136,19.086,4.67,-1.244,0.489,-3.684,-77.142,10793.47,2206.873,154.444,67.158,-284.488
44.0,-125.0,7303.0,-0.506,-4.54,-2.711,616.204,2298.286,-144.973,-90.01,-2.63,0.0,1500,110.319,0,3200.054,-72621.65,10.131,0,0.171,18.83,4.726,-1.453,0.442,-3.48,-96.935,10648.36,2232.926,180.373,60.678,-268.691
34.0,-124.0,7310.0,-4.184,0.073,-2.324,616.207,2298.267,-144.97,-90.01,-2.65,0.0,1500,114.69,0,3202.038,-70853.35,9.885,0,0.291,19.087,4.601,-1.172,0.266,-3.273,-165.11,10793.97,2174.061,145.506,36.459,-252.711
27.0,-130.0,7290.0,-1.485,-4.13,-2.64,616.216,2298.25,-144.964,-90.01,-2.67,0.0,1500,120.801,0,3201.313,-68708.3,9.585,0,0.1,19.836,4.506,-1.297,0.474,-3.469,-56.672,11217.68,2129.278,161.015,65.063,-267.881
20.0,-130.0,7315.0,-7.284,-2.318,-2.326,616.224,2298.241,-144.963,-90.01,-2.69,0.01,1500,129.267,0,3200.417,-71141.99,9.925,0,0.29,19.407,4.356,-1.518,0.683,-3.459,-164.603,10974.82,2058.161,188.423,93.798,-267.108
20.0,-134.0,7277.0,-0.175,-0.159,-2.851,616.234,2298.224,-144.96,-90.01,-2.71,0.01,1500,140.706,0,3200.264,-68927.06,9.616,0,0.386,19.583,4.661,-1.358,0.564,-3.344,-218.907,11074.26,2202.226,168.592,77.434,-258.234
11.0,-135.0,7294.0,-4.279,-1.13,-2.744,616.237,2298.216,-144.959,-90.01,-2.73,0.0,1500,156.468,0,3199.825,-69881.09,9.749,0,0.404,19.409,4.43,-1.715,0.51,-3.152,-229.057,10976.0,2093.086,212.931,70.038,-243.431
9.0,-130.0,7269.0,-5.094,-1.06,-2.857,616.239,2298.209,-144.96,-90.01,-2.75,0.0,1500,173.358,0,3199.902,-69470.92,9.692,0,0.365,19.442,4.592,-1.794,0.407,-3.154,-207.065,10994.87,2169.836,222.698,55.834,-243.542
5.0,-141.0,7322.0,-2.994,3.03,-2.78,616.243,2298.199,-144.963,-90.0,-2.76,0.0,1500,190.081,0,3199.978,-68513.85,9.558,0,0.269,18.784,4.283,-1.675,0.531,-3.485,-152.761,10622.4,2023.941,207.958,72.852,-269.096
-3.0,-139.0,7307.0,-6.684,-5.504,-2.376,616.251,2298.186,-144.966,-90.0,-2.78,0.0,1500,206.581,0,3199.749,-69276.47,9.665,0,0.373,18.801,3.997,-2.058,0.714,-3.731,-211.971,10632.01,1888.467,255.434,98.053,-288.134
-6.0,-146.0,7305.0,-4.131,3.231,-2.63,616.267,2298.169,-144.963,-90.0,-2.8,0.0,1500,222.837,0,3199.959,-67812.01,9.46,0,0.016,18.796,4.245,-2.184,0.849,-3.734,-9.304,10629.48,2005.774,271.062,116.577,-288.318
-21.0,-156.0,7272.0,-1.834,1.228,-2.489,616.29,2298.127,-144.955,-90.0,-2.81,0.0,1500,238.83,0,3200.531,-67632.74,9.435,0,0.18,20.016,4.202,-1.903,0.846,-3.588,-102.179,11319.48,1985.355,236.254,116.184,-277.05
-42.0,-156.0,7290.0,-8.583,-0.077,-2.039,616.31,2298.083,-144.95,-90.0,-2.83,0.01,1500,254.539,0,3200.073,-66867.09,9.328,0,-0.249,19.78,4.284,-2.037,0.764,-3.335,141.427,11185.66,2024.223,252.889,104.926,-257.534
-58.0,-168.0,7298.0,-3.613,4.952,-2.708,616.323,2298.036,-144.948,-90.01,-2.85,0.0,1500,269.945,0,3199.482,-67851.5,9.466,0,-0.301,19.39,4.363,-2.148,0.463,-3.383,170.862,10965.21,2061.823,266.682,63.558,-261.253
-88.0,-176.0,7301.0,-7.5,6.53,-2.141,616.34,2297.973,-144.945,-90.01,-2.86,0.0,1500,285.022,0,3198.452,-69941.86,9.757,0,-0.224,19.48,4.007,-1.885,0.333,-3.346,127.385,11016.28,1893.255,233.946,45.688,-258.381
-103.0,-182.0,7268.0,-5.146,4.78,-2.818,616.362,2297.926,-144.942,-90.01,-2.88,0.0,1500,299.944,0,3198.337,-71716.23,10.005,0,-0.438,19.246,4.527,-2.118,0.563,-3.182,248.511,10883.97,2138.995,262.893,77.303,-245.714
-120.0,-193.0,7276.0,-4.484,7.726,-2.714,616.385,2297.888,-144.939,-90.01,-2.89,0.0,1500,319.573,0,3197.918,-73475.41,10.25,0,-0.798,19.366,4.649,-2.568,0.693,-2.982,453.039,10951.56,2196.733,318.775,95.173,-230.249
-142.0,-201.0,7296.0,-9.049,5.068,-3.2,616.404,2297.842,-144.941,-90.01,-2.9,0.0,1500,344.013,0,3199.272,-71193.64,9.932,0,-0.742,18.581,4.507,-2.46,0.573,-2.749,421.065,10507.79,2129.842,305.337,78.613,-212.28
-158.0,-210.0,7299.0,-8.039,5.644,-2.584,616.426,2297.792,-144.939,-90.01,-2.92,0.0,1500,370.287,0,3200.97,-69179.24,9.651,0,-1.106,18.885,4.685,-2.433,0.548,-2.512,627.623,10679.7,2213.633,302.081,75.209,-193.942
-170.0,-217.0,7295.0,-5.148,8.104,-2.33,616.444,2297.75,-144.938,-90.01,-2.93,0.0,1500,396.916,0,3202.229,-68395.36,9.542,0,-1.26,18.353,4.775,-2.669,0.429,-2.528,715.422,10378.86,2256.162,331.324,58.91,-195.194
-199.0,-227.0,7282.0,-7.063,8.82,-2.715,616.462,2297.703,-144.937,-90.01,-2.94,0.0,1500,422.583,0,3200.569,-67927.46,9.476,0,-1.554,19.017,4.397,-3.063,0.368,-2.722,882.224,10754.03,2077.877,380.28,50.532,-210.218
-220.0,-234.0,7294.0,-9.362,10.727,-2.531,616.484,2297.646,-144.935,-90.01,-2.94,0.0,1500,450.611,0,3199.997,-69865.9,9.747,0,-1.264,19.148,4.307,-3.18,0.323,-2.877,717.452,10828.19,2035.066,394.724,44.314,-222.148
-252.0,-254.0,7289.0,-4.205,10.72,-2.921,616.513,2297.577,-144.933,-90.01,-2.95,0.0,1500,482.438,0,3200.035,-65888.76,9.192,0,-1.211,19.407,4.32,-3.156,0.302,-2.967,687.171,10974.65,2041.262,391.764,41.499,-229.144
-293.0,-266.0,7287.0,-13.659,13.772,-2.499,616.543,2297.509,-144.929,-90.01,-2.96,0.0,1500,518.275,0,3200.951,-64910.42,9.056,0,-1.348,19.48,4.622,-3.264,0.331,-2.99,764.989,11016.11,2184.2,405.143,45.492,-230.912
-316.0,-278.0,7280.0,-9.656,17.203,-1.953,616.576,2297.442,-144.926,-90.01,-2.96,0.0,1500,558.352,0,3201.713,-64761.54,9.035,0,-1.629,19.832,4.487,-3.472,0.39,-2.967,924.517,11214.99,2120.265,431.012,53.543,-229.108
-348.0,-304.0,7294.0,-8.176,14.164,-2.629,616.612,2297.371,-144.926,-90.01,-2.97,0.0,1500,602.95,0,3200.207,-64430.37,8.989,0,-1.987,19.414,4.505,-3.697,0.448,-2.874,1127.691,10978.69,2128.574,458.894,61.463,-221.927
-375.0,-309.0,7280.0,-15.034,14.111,-2.207,616.643,2297.31,-144.926,-90.01,-2.97,0.0,1500,652.377,0,3198.376,-67766.43,9.454,0,-2.934,19.346,4.214,-4.05,0.479,-2.796,1665.314,10940.44,1990.988,502.818,65.718,-215.888
-382.0,-329.0,7329.0,-6.559,18.751,-3.22,616.677,2297.244,-144.926,-90.01,-2.98,0.0,1500,706.954,0,3197.536,-70206.19,9.794,0,-3.969,19.135,4.273,-4.441,0.518,-2.799,2252.674,10821.11,2019.294,551.359,71.151,-216.109
-420.0,-341.0,7288.0,-11.627,11.984,-2.7,616.715,2297.172,-144.923,-90.01,-2.98,0.0,1500,766.984,0,3197.632,-71652.43,9.996,0,-4.557,19.756,4.207,-4.777,0.495,-2.71,2586.617,11172.18,1988.03,593.033,68.009,-209.26
-447.0,-353.0,7304.0,-14.832,21.606,-3.221,616.759,2297.083,-144.922,-90.01,-2.98,0.0,1500,832.271,0,3197.231,-74353.48,10.373,0,-5.081,19.118,4.347,-5.088,0.521,-2.635,2884.188,10811.5,2053.937,631.689,71.478,-203.479
-488.0,-383.0,7302.0,-7.075,19.637,-3.147,616.808,2296.983,-144.921,-90.01,-2.99,0.0,1500,897.543,0,3200.073,-71363.79,9.956,0,-5.549,19.27,4.396,-5.331,0.549,-2.345,3149.786,10897.29,2077.314,661.761,75.405,-181.055
-556.0,-406.0,7336.0,-19.911,20.21,-2.218,616.862,2296.869,-144.92,-90.01,-2.99,0.0,1500,961.902,0,3200.55,-69720.06,9.727,0,-5.908,18.984,4.043,-5.553,0.566,-1.873,3353.298,10735.49,1910.577,689.347,77.696,-144.638
-594.0,-437.0,7335.0,-10.401,31.088,-2.86,616.92,2296.742,-144.917,-90.02,-2.99,0.0,1500,1026.758,0,3202.305,-68605.0,9.571,0,-6.188,19.343,3.912,-5.961,0.604,-1.336,3512.487,10938.92,1848.613,740.019,82.867,-103.139
-669.0,-467.0,7323.0,-14.499,27.838,-2.424,616.985,2296.604,-144.912,-90.02,-2.99,0.0,1500,1088.787,0,3201.275,-66715.17,9.307,0,-6.033,19.099,3.803,-6.273,0.618,-0.689,3424.518,10800.72,1796.931,778.675,84.896,-53.171
-722.0,-488.0,7301.0,-15.051,27.446,-2.637,617.055,2296.457,-144.907,-90.02,-2.99,0.0,1500,1147.291,0,3200.607,-68167.48,9.51,0,-6.386,19.829,3.663,-6.687,0.633,-0.048,3624.647,11213.64,1730.884,830.117,86.86,-3.719
-775.0,-522.0,7352.0,-17.039,37.449,-2.756,617.127,2296.304,-144.908,-90.03,-2.99,0.0,1500,1202.124,0,3200.168,-67496.02,9.416,0,-6.782,19.217,3.536,-6.895,0.656,0.532,3849.475,10867.46,1671.033,855.986,90.002,41.057
-829.0,-557.0,7333.0,-11.547,28.335,-3.176,617.208,2296.134,-144.903,-90.03,-2.99,0.0,1500,1253.12,0,3198.128,-71488.36,9.973,0,-6.883,19.707,3.637,-7.052,0.655,0.953,3907.162,11144.54,1718.35,875.402,89.871,73.608
-905.0,-580.0,7313.0,-21.097,33.001,-2.522,617.292,2295.952,-144.899,-90.03,-2.99,0.0,1500,1300.106,0,3198.528,-71275.68,9.944,0,-7.203,19.312,3.728,-7.144,0.557,1.529,4088.344,10921.22,1761.724,886.827,76.453,118.089
-941.0,-615.0,7339.0,-11.155,45.024,-3.117,617.379,2295.764,-144.894,-90.03,-2.99,0.0,1500,1342.853,0,3199.138,-69978.32,9.763,0,-7.691,19.456,3.65,-7.29,0.505,1.736,4365.614,11002.46,1724.546,905.001,69.318,134.033
-1014.0,-657.0,7308.0,-13.356,28.895,-3.04,617.475,2295.556,-144.89,-90.03,-2.99,0.0,1500,1381.078,0,3200.569,-70561.67,9.844,0,-7.838,19.515,3.629,-7.447,0.458,1.922,4449.184,11036.17,1714.548,924.417,62.838,148.393
-1073.0,-671.0,7306.0,-23.49,36.777,-2.992,617.576,2295.34,-144.884,-90.03,-2.99,0.0,1500,1414.475,0,3200.15,-69157.98,9.648,0,-7.943,18.986,3.916,-7.578,0.403,2.106,4508.394,10736.84,1850.585,940.755,55.31,162.644
-1092.0,-719.0,7384.0,-6.285,52.074,-3.097,617.68,2295.111,-144.878,-90.03,-2.99,0.0,1500,1442.717,0,3200.664,-70977.92,9.902,0,-7.992,19.343,3.726,-7.841,0.397,2.329,4536.646,10938.92,1760.738,973.373,54.459,179.84
-1165.0,-749.0,7235.0,-19.229,25.537,-2.612,617.787,2294.875,-144.873,-90.03,-2.99,0.0,1500,1465.207,0,3199.863,-68905.8,9.613,0,-8.298,19.54,3.495,-7.936,0.302,2.588,4710.045,11050.32,1651.317,985.153,41.434,199.834
-1190.0,-771.0,7298.0,-18.707,39.695,-2.67,617.896,2294.634,-144.869,-90.03,-2.99,0.0,1500,1478.097,0,3199.94,-70534.33,9.84,0,-8.326,18.623,3.699,-8.14,0.259,2.905,4725.947,10531.22,1747.782,1010.548,35.608,224.358
-1187.0,-821.0,7397.0,-8.101,52.308,-2.142,618.008,2294.384,-144.864,-90.04,-2.99,0.0,1500,1475.021,0,3199.329,-72904.21,10.171,0,-8.584,19.276,3.42,-8.346,0.146,3.177,4872.28,10901.0,1616.111,1036.121,20.03,245.346
-1273.0,-841.0,7205.0,-32.509,10.966,-2.99,618.12,2294.125,-144.859,-90.04,-2.99,0.0,1500,1455.56,0,3198.414,-73375.15,10.236,0,-8.289,19.16,3.069,-8.462,0.005,3.33,4704.97,10834.93,1450.219,1050.506,0.655,257.129
-1226.0,-880.0,7301.0,-6.549,46.869,-3.184,618.233,2293.866,-144.856,-90.04,-2.99,0.0,1500,1420.474,0,3198.662,-76212.93,10.632,0,-8.367,18.128,3.418,-8.647,-0.139,3.393,4749.292,10251.78,1614.984,1073.415,-19.048,262.027
-1239.0,-934.0,7325.0,-10.932,43.078,-2.881,618.346,2293.607,-144.85,-90.03,-2.99,0.0,1500,1375.249,0,3198.299,-75641.73,10.553,0,-8.416,19.29,3.198,-8.824,-0.368,3.354,4777.037,10908.58,1511.337,1095.437,-50.467,259.007
-1280.0,-923.0,7219.0,-43.126,14.277,-2.424,618.459,2293.35,-144.844,-90.03,-2.99,0.0,1500,1322.666,0,3198.929,-76756.78,10.708,0,-8.145,18.396,3.248,-8.942,-0.608,3.31,4623.43,10403.13,1534.714,1110.058,-83.522,255.62
-1187.0,-992.0,7369.0,7.003,54.02,-3.455,618.57,2293.095,-144.838,-90.03,-2.99,0.0,1500,1264.287,0,3199.787,-77018.08,10.745,0,-8.139,17.872,3.391,-9.152,-0.75,3.222,4620.046,10107.01,1602.451,1136.164,-102.962,248.807
-1248.0,-1001.0,7154.0,-27.709,17.782,-2.468,618.674,2292.845,-144.829,-90.03,-2.99,0.0,1500,1201.609,0,3200.455,-75869.6,10.584,0,-8.207,19.411,2.903,-9.274,-1.031,3.167,4658.617,10977.35,1371.497,1151.259,-141.581,244.536
-1185.0,-973.0,7227.0,-31.472,32.696,-2.759,618.776,2292.595,-144.824,-90.03,-2.99,0.0,1500,1136.114,0,3200.512,-75182.94,10.489,0,-8.087,18.181,2.89,-9.412,-1.181,3.188,4590.611,10281.28,1365.724,1168.367,-162.134,246.193
-1174.0,-1045.0,7295.0,-1.91,28.781,-3.747,618.873,2292.346,-144.822,-90.03,-2.99,0.0,1500,1068.716,0,3201.675,-73867.35,10.305,0,-7.958,18.043,2.645,-9.555,-1.305,3.226,4517.021,10203.41,1249.683,1186.185,-179.087,249.102
-1190.0,-1016.0,7070.0,-37.86,13.37,-1.809,618.968,2292.108,-144.815,-90.03,-2.99,0.0,1500,999.489,0,3201.218,-73493.64,10.253,0,-7.834,19.168,2.588,-9.571,-1.453,3.371,4446.816,10839.48,1222.645,1188.198,-199.444,260.333
-1097.0,-1026.0,7212.0,-5.18,46.552,-3.714,619.061,2291.871,-144.813,-90.03,-2.99,0.0,1500,928.439,0,3199.978,-75277.13,10.502,0,-7.79,17.697,2.787,-9.663,-1.466,3.614,4421.609,10008.07,1316.998,1199.564,-201.277,279.075
-1140.0,-1034.0,7181.0,-23.397,21.93,-1.843,619.15,2291.641,-144.808,-90.03,-2.99,0.0,1500,855.577,0,3200.245,-74961.14,10.458,0,-7.82,18.929,2.151,-9.48,-1.465,3.91,4438.696,10704.31,1016.336,1176.832,-201.146,301.905
-1118.0,-1017.0,7082.0,-28.796,20.341,-1.844,619.24,2291.41,-144.808,-90.03,-2.99,-0.01,1500,781.23,0,3198.604,-76474.22,10.669,0,-7.387,18.012,2.212,-9.192,-1.366,4.076,4192.891,10186.05,1045.346,1141.136,-187.531,314.719
-1075.0,-1050.0,7153.0,3.251,38.788,-4.325,619.326,2291.189,-144.807,-90.03,-2.99,-0.01,1500,709.203,0,3199.634,-78266.82,10.919,0,-7.506,18.295,2.082,-8.665,-1.26,4.209,4260.559,10346.0,983.946,1075.665,-173.0,325.029
-1121.0,-1026.0,7075.0,-27.393,20.914,-2.853,619.409,2290.979,-144.802,-90.03,-2.99,-0.01,1500,645.938,0,3199.12,-76787.16,10.712,0,-7.543,19.271,1.895,-7.807,-1.22,4.326,4281.875,10897.96,895.226,969.17,-167.502,334.051
-1092.0,-1020.0,7017.0,-15.952,20.055,-3.354,619.489,2290.777,-144.799,-90.03,-2.99,-0.01,1500,592.293,0,3200.359,-77443.45,10.804,0,-7.567,18.514,1.599,-7.089,-1.147,4.351,4295.07,10470.04,755.528,880.079,-157.487,336.002
-1078.0,-1033.0,7075.0,-10.305,25.154,-2.75,619.563,2290.585,-144.795,-90.02,-2.99,-0.01,1500,548.712,0,3201.179,-74602.63,10.408,0,-7.546,18.922,1.534,-6.111,-1.07,4.304,4283.059,10700.77,724.828,758.666,-146.818,332.32
-1052.0,-1014.0,6984.0,-12.538,15.147,-3.176,619.626,2290.413,-144.79,-90.02,-2.99,-0.01,1500,514.157,0,3200.798,-75383.47,10.517,0,-7.713,19.658,1.684,-5.777,-1.171,4.206,4378.302,11116.56,795.944,717.11,-160.694,324.808
-1035.0,-997.0,6973.0,-18.449,17.296,-3.565,619.682,2290.257,-144.789,-90.02,-2.98,-0.02,1500,486.768,0,3201.141,-74936.84,10.454,0,-7.799,18.729,1.43,-5.448,-1.134,4.155,4426.685,10591.56,675.539,676.264,-155.654,320.832
-1006.0,-990.0,7032.0,-10.739,21.594,-2.007,619.737,2290.111,-144.787,-90.02,-2.98,-0.02,1500,465.157,0,3199.673,-74095.23,10.337,0,-7.661,19.261,1.532,-4.957,-0.958,4.33,4348.358,10892.4,723.842,615.41,-131.501,334.382
-989.0,-998.0,6901.0,-2.642,7.581,-3.167,619.792,2289.969,-144.786,-90.02,-2.98,-0.03,1500,447.848,0,3200.397,-76322.3,10.648,0,-7.629,19.353,1.555,-4.447,-0.763,4.58,4330.257,10944.48,734.967,552.01,-104.795,353.677
-986.0,-966.0,6903.0,-15.64,10.139,-4.328,619.842,2289.838,-144.785,-90.02,-2.97,-0.03,1500,433.354,0,3199.1,-75298.4,10.505,0,-7.238,19.018,1.428,-4.208,-0.808,4.736,4108.644,10754.87,674.976,522.352,-110.882,365.681
-922.0,-945.0,7045.0,-8.453,24.604,-2.643,619.881,2289.722,-144.788,-90.02,-2.96,-0.04,1500,420.764,0,3199.997,-78038.95,10.887,0,-7.374,19.107,1.098,-4.312,-0.731,4.703,4185.617,10805.1,518.8,535.257,-100.344,363.177
-942.0,-937.0,6839.0,-12.516,-3.178,-2.715,619.917,2289.617,-144.789,-90.01,-2.96,-0.05,1500,410.002,0,3199.577,-75301.44,10.505,0,-7.39,19.518,1.048,-4.141,-0.663,4.54,4194.921,11037.85,495.001,514.065,-90.984,350.584
-902.0,-900.0,6871.0,-10.833,8.457,-3.272,619.95,2289.523,-144.79,-90.01,-2.95,-0.06,1500,401.064,0,3200.817,-75167.75,10.486,0,-7.195,18.388,1.519,-4.335,-0.727,4.355,4083.776,10398.41,717.646,538.158,-99.755,336.26
-830.0,-885.0,6967.0,1.45,22.832,-2.107,619.982,2289.424,-144.792,-90.01,-2.94,-0.07,1500,393.941,0,3201.713,-73721.52,10.285,0,-7.214,19.341,1.447,-3.972,-0.742,4.239,4094.941,10937.23,683.566,493.109,-101.849,327.312
-912.0,-871.0,6846.0,-26.05,-13.93,-2.498,620.012,2289.328,-144.794,-90.01,-2.93,-0.08,1500,388.603,0,3201.427,-72178.05,10.069,0,-7.271,18.823,1.421,-3.317,-0.825,4.514,4127.083,10644.82,671.455,411.832,-113.239,348.559
-813.0,-842.0,6905.0,-3.343,11.217,-3.356,620.041,2289.239,-144.799,-90.01,-2.92,-0.09,1500,384.846,0,3200.474,-74569.2,10.403,0,-7.126,17.843,1.695,-3.664,-0.767,4.687,4044.867,10090.15,800.873,454.809,-105.319,361.925
-794.0,-855.0,6884.0,5.801,19.224,-3.721,620.068,2289.153,-144.803,-90.01,-2.91,-0.1,1500,382.394,0,3199.558,-72190.2,10.071,0,-7.145,18.588,1.223,-3.554,-0.634,4.73,4055.694,10511.84,577.806,441.253,-86.991,365.239
-855.0,-815.0,6804.0,-26.293,-5.057,-3.231,620.102,2289.069,-144.802,-90.01,-2.9,-0.11,1500,380.967,0,3200.798,-71102.49,9.919,0,-7.126,18.797,1.543,-3.081,-0.45,4.507,4044.867,10629.65,728.912,382.53,-61.79,348.006
-756.0,-800.0,6947.0,0.394,22.373,-3.203,620.136,2288.985,-144.805,-90.01,-2.88,-0.12,1500,380.289,0,3200.626,-72165.9,10.068,0,-7.142,18.842,1.572,-3.178,-0.253,4.45,4054.171,10655.43,742.572,394.547,-34.692,343.625
-807.0,-818.0,6805.0,-4.077,-5.817,-3.056,620.16,2288.902,-144.807,-90.01,-2.87,-0.13,1500,380.08,0,3201.065,-69270.39,9.664,0,-7.17,19.788,1.283,-3.026,-0.429,4.759,4069.735,11190.04,606.112,375.663,-58.91,367.485
-802.0,-769.0,6797.0,-15.043,3.458,-2.364,620.177,2288.821,-144.812,-90.01,-2.86,-0.15,1500,380.077,0,3199.844,-70169.73,9.789,0,-7.086,18.574,1.226,-3.012,-0.717,4.916,4022.198,10503.58,579.496,373.887,-98.38,379.6
-732.0,-777.0,6946.0,14.557,17.32,-2.22,620.201,2288.742,-144.817,-90.01,-2.84,-0.16,1500,380.138,0,3200.76,-70980.96,9.902,0,-7.26,19.028,1.459,-3.083,-0.49,4.797,4120.993,10760.77,689.199,382.766,-67.223,370.431
-811.0,-765.0,6821.0,-19.305,-14.766,-1.683,620.228,2288.668,-144.821,-90.01,-2.83,-0.18,1500,380.288,0,3199.234,-69452.69,9.689,0,-7.179,19.188,1.306,-2.767,-0.257,4.602,4075.148,10851.11,616.956,343.519,-35.346,355.334
-754.0,-740.0,6876.0,-6.642,12.207,-3.712,620.25,2288.59,-144.829,-90.01,-2.81,-0.19,1500,380.569,0,3199.291,-73226.27,10.216,0,-7.197,17.497,1.404,-2.774,-0.398,4.871,4085.298,9894.813,663.287,344.407,-54.656,376.139
-752.0,-756.0,6882.0,5.806,12.408,-3.13,620.271,2288.514,-144.83,-90.01,-2.79,-0.21,1500,381.02,0,3199.749,-70364.18,9.816,0,-7.244,19.322,1.439,-2.849,-0.48,5.002,4111.858,10926.62,679.904,353.642,-65.914,386.228
-806.0,-733.0,6820.0,-16.696,-5.194,-2.28,620.293,2288.439,-144.83,-90.0,-2.78,-0.23,1500,381.682,0,3199.692,-71421.52,9.964,0,-7.081,19.408,1.553,-2.497,-0.43,4.826,4019.322,10975.66,733.7,310.014,-59.041,372.677
-752.0,-731.0,6902.0,5.257,19.099,-3.864,620.316,2288.371,-144.835,-90.0,-2.76,-0.25,1500,382.596,0,3200.817,-69744.37,9.73,0,-7.17,18.925,1.365,-2.975,-0.112,5.079,4069.735,10702.29,644.839,369.27,-15.382,392.23
-784.0,-721.0,6857.0,-8.743,4.009,-2.51,620.34,2288.295,-144.838,-90.0,-2.74,-0.27,1500,383.799,0,3200.798,-68018.61,9.489,0,-7.12,19.535,1.501,-2.34,-0.211,5.284,4041.652,11046.95,709.337,290.479,-28.932,408.063
-797.0,-710.0,6840.0,-7.151,-5.256,-2.685,620.355,2288.225,-144.844,-90.0,-2.72,-0.29,1500,385.32,0,3200.741,-68717.42,9.587,0,-7.167,18.699,1.514,-2.715,-0.375,4.942,4068.043,10574.7,715.252,337.007,-51.448,381.588
-757.0,-716.0,6918.0,6.319,18.735,-2.593,620.379,2288.156,-144.851,-90.0,-2.69,-0.31,1500,387.191,0,3200.951,-66022.44,9.211,0,-7.359,18.535,1.589,-2.604,0.033,5.094,4176.989,10481.67,750.88,323.274,4.582,393.371
-792.0,-699.0,6843.0,-5.137,1.316,-2.395,620.4,2288.088,-144.85,-90.0,-2.67,-0.33,1500,389.441,0,3200.626,-66222.97,9.239,0,-7.303,20.098,1.589,-2.549,-0.036,5.103,4145.523,11365.49,751.021,316.466,-4.975,394.034
-803.0,-683.0,6864.0,-7.007,4.569,-3.234,620.414,2288.016,-144.855,-90.0,-2.65,-0.36,1500,392.1,0,3200.588,-66478.19,9.274,0,-7.142,18.84,1.583,-2.764,-0.244,5.056,4054.002,10654.25,747.782,343.164,-33.448,390.389
-781.0,-687.0,6909.0,3.795,13.877,-2.502,620.439,2287.946,-144.858,-90.0,-2.63,-0.38,1500,395.199,0,3199.177,-65572.77,9.148,0,-7.331,19.209,1.926,-2.578,0.047,5.381,4161.256,10862.74,910.295,320.018,6.415,415.501
-813.0,-684.0,6871.0,-4.1,2.49,-2.325,620.458,2287.878,-144.866,-90.0,-2.6,-0.4,1500,398.769,0,3199.73,-68094.57,9.5,0,-7.282,18.47,1.779,-2.686,0.085,5.205,4133.512,10445.1,840.586,333.396,11.651,401.914
-801.0,-670.0,6904.0,0.383,10.959,-3.283,620.479,2287.803,-144.868,-90.0,-2.58,-0.43,1500,402.833,0,3198.795,-67265.11,9.384,0,-7.159,18.934,1.802,-2.623,0.106,5.14,4063.814,10707.34,851.289,325.582,14.597,396.943
-802.0,-659.0,6896.0,1.617,9.643,-2.546,620.5,2287.729,-144.868,-90.0,-2.55,-0.45,1500,407.399,0,3198.967,-70582.95,9.847,0,-7.3,19.709,1.573,-2.545,0.186,5.144,4143.493,11145.89,743.135,315.933,25.593,397.201
-836.0,-653.0,6838.0,-2.773,-1.918,-2.715,620.515,2287.66,-144.873,-90.0,-2.52,-0.48,1500,412.47,0,3198.299,-69853.75,9.745,0,-7.305,19.18,1.895,-2.673,0.014,5.152,4146.369,10846.39,895.649,331.857,1.964,397.827
-802.0,-654.0,6921.0,5.222,14.967,-3.012,620.536,2287.589,-144.88,-90.0,-2.5,-0.51,1500,418.05,0,3198.929,-71132.88,9.924,0,-7.351,18.35,1.912,-2.835,0.259,5.332,4172.76,10377.34,903.253,351.925,35.543,411.709
-818.0,-651.0,6926.0,0.993,8.827,-2.927,620.555,2287.514,-144.881,-90.0,-2.47,-0.54,1500,424.142,0,3199.52,-71108.57,9.92,0,-7.34,19.715,1.888,-2.708,0.127,5.161,4166.331,11149.26,892.128,336.119,17.477,398.526
-852.0,-644.0,6872.0,-4.646,-0.13,-3.244,620.575,2287.441,-144.883,-90.0,-2.44,-0.56,1500,430.749,0,3200.321,-70066.43,9.775,0,-7.274,19.132,1.782,-2.672,0.242,5.274,4128.775,10819.26,841.854,331.739,33.186,407.29
-816.0,-635.0,6902.0,8.012,17.79,-2.125,620.594,2287.367,-144.889,-90.0,-2.41,-0.59,1500,437.876,0,3200.378,-69568.15,9.705,0,-7.291,18.569,1.808,-2.989,0.281,5.29,4138.756,10500.88,854.528,371.105,38.619,408.505
-838.0,-638.0,6882.0,1.623,9.176,-3.024,620.617,2287.293,-144.892,-90.0,-2.38,-0.62,1500,445.53,0,3201.408,-66918.74,9.336,0,-7.335,19.613,1.901,-2.959,0.468,5.46,4163.793,11091.45,898.184,367.375,64.212,421.651
-861.0,-630.0,6899.0,-6.999,3.76,-2.266,620.637,2287.217,-144.894,-90.0,-2.35,-0.65,1500,453.727,0,3200.931,-65779.38,9.177,0,-7.313,19.054,1.946,-2.881,0.341,5.346,4150.937,10775.44,919.307,357.608,46.866,412.85
-837.0,-625.0,6944.0,4.78,15.716,-3.127,620.657,2287.14,-144.899,-90.0,-2.32,-0.69,1500,462.48,0,3200.684,-68085.45,9.498,0,-7.487,18.564,1.962,-2.983,0.452,5.423,4249.901,10498.36,927.194,370.335,62.052,418.779
-865.0,-623.0,6856.0,2.937,7.423,-2.481,620.679,2287.059,-144.899,-90.0,-2.28,-0.72,1500,471.805,0,3199.386,-67262.07,9.384,0,-7.432,19.56,2.073,-2.834,0.321,5.332,4218.436,11061.11,979.299,351.807,44.052,411.746
-874.0,-612.0,6872.0,-2.123,10.406,-2.598,620.7,2286.979,-144.901,-90.0,-2.25,-0.75,1500,481.687,0,3199.043,-68495.63,9.556,0,-7.356,19.35,1.918,-2.939,0.443,5.588,4175.635,10942.8,906.492,364.83,60.809,431.519
-848.0,-620.0,6970.0,5.23,18.901,-2.055,620.724,2286.897,-144.907,-90.0,-2.22,-0.78,1500,491.861,0,3199.406,-69218.74,9.657,0,-7.307,18.877,2.002,-3.098,0.46,5.252,4147.553,10674.99,946.205,384.602,63.1,405.523
-900.0,-629.0,6885.0,-4.54,-3.552,-2.692,620.748,2286.812,-144.908,-89.99,-2.18,-0.82,1500,502.216,0,3199.1,-70750.05,9.87,0,-7.438,19.558,2.164,-2.987,0.532,5.329,4221.988,11060.27,1022.673,370.749,72.983,411.488
-889.0,-617.0,6876.0,0.727,13.115,-2.567,620.771,2286.731,-144.907,-89.99,-2.15,-0.85,1500,512.715,0,3196.544,-75517.16,10.535,0,-7.325,19.358,2.163,-3.25,0.391,5.341,4158.042,10947.35,1021.969,403.426,53.608,412.445
-879.0,-621.0,6937.0,5.195,19.555,-2.824,620.798,2286.645,-144.911,-89.99,-2.12,-0.89,1500,523.314,0,3198.795,-74611.74,10.409,0,-7.36,19.262,2.164,-3.245,0.643,5.291,4177.666,10892.91,1022.532,402.834,88.3,408.579
-927.0,-623.0,6903.0,-6.827,-1.662,-2.566,620.823,2286.557,-144.913,-89.99,-2.08,-0.92,1500,533.969,0,3198.204,-75824.02,10.578,0,-7.304,19.772,1.99,-3.371,0.551,5.316,4145.692,11181.45,940.29,418.521,75.667,410.53
-897.0,-622.0,6958.0,4.958,18.304,-1.433,620.85,2286.471,-144.916,-89.99,-2.04,-0.96,1500,544.628,0,3200.359,-74924.69,10.453,0,-7.283,18.808,2.466,-3.362,0.547,5.26,4133.85,10635.88,1165.047,417.397,75.143,406.149
-919.0,-628.0,6944.0,3.637,19.755,-2.441,620.876,2286.381,-144.917,-89.99,-2.01,-0.99,1500,555.234,0,3200.188,-76073.16,10.613,0,-7.366,18.978,2.359,-3.235,0.479,5.41,4181.387,10732.29,1114.632,401.591,65.718,417.748
-964.0,-622.0,6885.0,-0.602,-1.686,-2.93,620.903,2286.287,-144.916,-89.99,-1.97,-1.03,1500,565.728,0,3197.384,-81317.28,11.344,0,-7.407,19.616,2.129,-3.403,0.433,5.291,4204.395,11092.96,1006.056,422.487,59.499,408.579
-927.0,-626.0,6944.0,9.054,21.987,-3.166,620.93,2286.197,-144.921,-89.99,-1.94,-1.07,1500,576.051,0,3198.242,-80080.7,11.172,0,-7.399,18.721,2.267,-3.674,0.542,5.351,4199.658,10586.67,1071.399,456.111,74.423,413.182
-949.0,-639.0,6937.0,0.876,19.123,-3.973,620.961,2286.099,-144.921,-89.99,-1.9,-1.1,1500,586.147,0,3200.016,-78944.37,11.013,0,-7.378,19.807,2.397,-3.464,0.341,5.362,4188.154,11200.83,1132.799,430.065,46.866,414.065
-991.0,-637.0,6934.0,-7.998,4.572,-2.204,620.995,2285.999,-144.923,-89.99,-1.86,-1.14,1500,595.958,0,3202.495,-75158.63,10.485,0,-7.434,19.198,2.438,-3.625,0.443,5.325,4219.958,10856.84,1151.81,449.955,60.809,411.193
-953.0,-645.0,6999.0,8.996,26.61,-3.256,621.029,2285.895,-144.928,-89.99,-1.82,-1.18,1500,605.426,0,3202.991,-71883.34,10.028,0,-7.549,18.696,2.216,-3.644,0.542,5.316,4284.919,10572.51,1047.318,452.382,74.423,410.494
-1007.0,-655.0,6878.0,-0.514,12.16,-3.154,621.069,2285.792,-144.926,-89.99,-1.79,-1.22,1500,614.494,0,3203.964,-69130.63,9.644,0,-7.807,20.259,2.072,-3.565,0.552,5.35,4431.59,11456.5,979.017,442.555,75.798,413.145
-1024.0,-659.0,6924.0,-4.972,16.622,-1.974,621.11,2285.682,-144.932,-89.99,-1.75,-1.26,1500,623.137,0,3203.087,-66061.94,9.216,0,-7.706,18.581,2.17,-3.792,0.554,5.386,4374.242,10507.46,1025.208,470.792,76.06,415.87
-1005.0,-681.0,7043.0,5.784,23.402,-2.497,621.15,2285.566,-144.935,-89.99,-1.71,-1.3,1500,631.582,0,3203.087,-66566.3,9.287,0,-7.676,19.737,1.989,-3.86,0.439,5.52,4356.817,11161.73,939.868,479.198,60.285,426.254
-1069.0,-695.0,6930.0,-9.448,6.015,-1.416,621.193,2285.453,-144.935,-89.99,-1.67,-1.34,1500,639.903,0,3200.226,-66739.48,9.311,0,-7.544,19.4,2.058,-3.653,0.399,5.459,4282.213,10970.94,972.399,453.507,54.787,421.504
-1048.0,-703.0,6946.0,4.046,24.476,-2.711,621.236,2285.35,-144.937,-89.99,-1.63,-1.38,1500,648.092,0,3198.146,-71230.1,9.937,0,-7.836,19.039,2.293,-4.027,0.447,5.664,4448.169,10766.67,1083.651,499.917,61.332,437.337
-1045.0,-718.0,6996.0,6.346,26.078,-2.246,621.278,2285.241,-144.937,-89.99,-1.59,-1.42,1500,656.137,0,3196.754,-75003.68,10.464,0,-7.953,20.062,1.888,-4.091,0.395,5.655,4514.315,11345.1,892.128,507.849,54.198,436.711
-1124.0,-729.0,6921.0,-12.103,-0.062,-2.589,621.323,2285.132,-144.941,-89.99,-1.55,-1.46,1500,663.83,0,3197.384,-73387.3,10.238,0,-7.851,19.228,1.985,-4.114,0.302,5.613,4456.627,10873.53,937.896,510.75,41.499,433.397
-1069.0,-750.0,7000.0,6.71,28.17,-2.782,621.369,2285.024,-144.942,-89.99,-1.5,-1.5,1500,669.71,0,3198.795,-77950.84,10.875,0,-7.889,19.017,1.878,-4.36,0.361,5.681,4478.112,10754.03,887.481,541.236,49.55,438.663
-1085.0,-762.0,6977.0,-0.336,22.212,-3.004,621.416,2284.914,-144.944,-89.99,-1.46,-1.54,1500,673.505,0,3197.937,-75483.73,10.531,0,-8.111,19.185,1.952,-4.407,0.158,5.635,4603.806,10849.26,922.406,547.038,21.666,435.128
-1155.0,-767.0,6919.0,-15.829,6.538,-3.335,621.462,2284.801,-144.942,-89.99,-1.42,-1.59,1500,675.246,0,3200.798,-73180.7,10.209,0,-7.972,19.557,1.764,-4.316,-0.072,5.537,4525.142,11059.93,833.545,535.79,-9.818,427.579
-1095.0,-790.0,7003.0,4.946,33.452,-3.201,621.51,2284.691,-144.946,-89.99,-1.38,-1.63,1500,674.961,0,3201.828,-72457.58,10.108,0,-7.689,18.544,1.888,-4.479,-0.016,5.621,4364.43,10487.06,892.128,556.035,-2.226,434.06
-1133.0,-814.0,6929.0,-3.917,15.186,-2.321,621.562,2284.585,-144.943,-89.99,-1.33,-1.67,1500,672.678,0,3202.991,-68285.98,9.526,0,-7.817,19.667,1.837,-4.397,-0.077,5.49,4437.173,11122.12,868.188,545.854,-10.604,423.934
-1163.0,-820.0,6918.0,-13.979,17.437,-2.846,621.612,2284.482,-144.944,-89.99,-1.29,-1.72,1500,668.427,0,3201.713,-67966.96,9.482,0,-7.712,18.528,1.876,-4.649,-0.279,5.376,4377.456,10477.79,886.214,577.169,-38.292,415.133
-1116.0,-848.0,7024.0,4.978,29.956,-3.309,621.662,2284.383,-144.942,-89.99,-1.24,-1.76,1500,662.233,0,3201.389,-68322.44,9.532,0,-7.554,19.076,1.977,-5.123,-0.48,5.285,4287.965,10787.57,933.953,635.951,-65.914,408.137
-1169.0,-864.0,6892.0,-9.374,4.989,-1.778,621.716,2284.282,-144.942,-89.99,-1.2,-1.81,1500,654.124,0,3199.749,-69625.88,9.713,0,-7.556,18.824,1.986,-4.913,-0.478,5.287,4288.811,10645.15,938.46,609.964,-65.652,408.247
-1158.0,-875.0,6899.0,-7.904,25.094,-2.79,621.769,2284.178,-144.94,-89.99,-1.16,-1.85,1500,644.121,0,3197.365,-73940.27,10.315,0,-7.307,18.574,2.001,-5.253,-0.66,5.13,4147.892,10503.58,945.36,652.053,-90.591,396.17
-1131.0,-894.0,6998.0,-3.242,28.507,-1.669,621.822,2284.081,-144.941,-89.99,-1.11,-1.89,1500,632.243,0,3198.128,-74915.57,10.451,0,-7.35,18.826,2.164,-5.425,-0.812,5.026,4171.914,10646.17,1022.532,673.482,-111.471,388.106
-1205.0,-920.0,6881.0,-15.713,-0.627,-2.499,621.877,2283.981,-144.938,-89.99,-1.07,-1.94,1500,618.51,0,3197.803,-75006.72,10.464,0,-7.09,18.853,1.934,-5.185,-1.056,4.897,4024.228,10661.5,913.815,643.647,-144.985,378.164
-1155.0,-936.0,6891.0,-1.3,30.51,-4.183,621.936,2283.885,-144.938,-89.99,-1.03,-1.98,1500,602.943,0,3200.359,-74001.04,10.324,0,-7.078,18.191,2.43,-5.51,-1.02,4.959,4017.799,10287.17,1148.008,684.078,-140.01,382.914
-1154.0,-953.0,6944.0,-5.583,24.439,-2.23,621.991,2283.789,-144.936,-89.99,-0.98,-2.02,1500,585.565,0,3201.294,-70658.9,9.857,0,-6.903,18.841,2.288,-5.669,-1.26,4.683,3918.496,10654.59,1080.975,703.731,-172.935,361.594
-1208.0,-964.0,6884.0,-20.599,5.919,-2.506,622.046,2283.7,-144.936,-89.99,-0.94,-2.07,1500,566.594,0,3201.866,-70139.35,9.785,0,-6.716,18.393,2.299,-5.711,-1.458,4.593,3811.919,10401.45,1086.185,708.941,-200.164,354.634
-1148.0,-990.0,6930.0,0.962,30.571,-4.502,622.103,2283.612,-144.935,-89.99,-0.9,-2.11,1500,547.508,0,3201.275,-69097.21,9.64,0,-6.53,17.945,2.431,-5.977,-1.583,4.671,3706.864,10148.13,1148.853,741.973,-217.314,360.71
-1163.0,-1002.0,6873.0,-11.397,17.325,-3.466,622.159,2283.522,-144.933,-89.99,-0.86,-2.15,1500,528.603,0,3201.103,-67869.73,9.468,0,-6.385,18.606,2.388,-5.997,-1.699,4.536,3624.478,10522.12,1128.574,744.518,-233.285,350.253
-1196.0,-1010.0,6840.0,-19.867,12.695,-3.431,622.216,2283.436,-144.932,-89.99,-0.82,-2.18,1500,509.874,0,3201.79,-66074.09,9.218,0,-6.33,17.744,2.728,-6.024,-1.953,4.368,3593.181,10034.37,1289.115,747.833,-268.107,337.328
-1143.0,-1030.0,6933.0,-5.671,31.226,-3.348,622.273,2283.353,-144.933,-89.99,-0.79,-2.22,1500,491.314,0,3200.512,-65238.56,9.101,0,-6.353,17.855,2.841,-6.252,-1.926,4.237,3606.208,10097.4,1342.347,776.07,-264.311,327.165
-1188.0,-1053.0,6854.0,-12.938,10.569,-3.299,622.333,2283.263,-144.932,-89.99,-0.75,-2.26,1500,473.277,0,3200.855,-66247.27,9.242,0,-6.173,18.434,2.513,-6.07,-1.961,4.296,3503.859,10424.37,1187.439,753.516,-269.155,331.731
-1184.0,-1060.0,6841.0,-13.45,20.663,-3.101,622.388,2283.175,-144.936,-89.99,-0.72,-2.29,1500,456.086,0,3199.596,-64898.27,9.054,0,-6.072,17.017,2.597,-6.232,-2.404,4.08,3446.341,9623.127,1227.151,773.702,-329.963,315.051
-1154.0,-1074.0,6922.0,-6.685,26.706,-1.916,622.447,2283.093,-144.933,-89.99,-0.68,-2.33,1500,439.445,0,3200.092,-67957.84,9.481,0,-5.9,18.188,2.67,-6.284,-2.302,4.002,3349.238,10285.66,1261.794,780.095,-316.021,309.012
-1206.0,-1099.0,6839.0,-16.034,3.579,-3.014,622.502,2283.013,-144.936,-89.99,-0.65,-2.36,1500,422.96,0,3198.337,-67477.79,9.414,0,-6.189,17.514,2.457,-6.289,-2.382,4.007,3512.995,9904.084,1161.104,780.746,-326.952,309.454
-1167.0,-1106.0,6837.0,-8.674,23.219,-4.086,622.557,2282.935,-144.937,-89.99,-0.62,-2.39,1500,406.618,0,3199.005,-68246.48,9.521,0,-6.027,17.633,2.686,-6.622,-2.66,3.939,3420.797,9971.668,1269.258,822.007,-365.179,304.151
-1156.0,-1116.0,6887.0,-11.38,22.265,-3.048,622.615,2282.858,-144.938,-89.99,-0.59,-2.42,1500,390.414,0,3199.482,-68802.49,9.598,0,-5.904,17.894,2.598,-6.344,-2.504,3.964,3351.268,10118.97,1227.715,787.554,-343.709,306.066
-1202.0,-1130.0,6826.0,-20.145,7.212,-2.554,622.669,2282.782,-144.941,-89.99,-0.56,-2.45,1500,374.337,0,3200.302,-66651.37,9.298,0,-5.905,17.575,2.353,-6.201,-2.735,3.819,3351.944,9938.634,1111.956,769.854,-375.455,294.909
-1149.0,-1143.0,6855.0,-6.208,25.923,-4.063,622.722,2282.718,-144.941,-89.99,-0.53,-2.48,1500,358.384,0,3199.902,-69194.44,9.653,0,-5.905,17.713,2.501,-6.708,-2.563,3.762,3351.775,10016.67,1181.947,832.78,-351.826,290.49
-1162.0,-1156.0,6855.0,-11.673,16.283,-4.189,622.77,2282.653,-144.945,-89.99,-0.51,-2.5,1500,342.551,0,3199.616,-66362.73,9.258,0,-5.818,17.519,2.466,-6.5,-2.857,3.831,3302.546,9906.948,1165.047,806.971,-392.212,295.829
-1183.0,-1161.0,6833.0,-21.859,13.442,-3.641,622.819,2282.589,-144.946,-89.99,-0.48,-2.53,1500,326.839,0,3200.893,-64877.0,9.051,0,-5.74,17.621,2.415,-6.339,-2.834,3.607,3258.224,9964.59,1141.248,786.903,-389.07,278.523
-1144.0,-1169.0,6874.0,-10.038,25.174,-3.048,622.867,2282.53,-144.945,-89.99,-0.46,-2.55,1500,311.247,0,3200.989,-65481.62,9.135,0,-5.755,17.77,2.875,-6.556,-3.043,3.665,3266.682,10049.03,1358.542,813.837,-417.674,282.978
-1173.0,-1193.0,6838.0,-11.016,8.66,-3.118,622.913,2282.472,-144.948,-89.99,-0.43,-2.58,1500,295.774,0,3200.855,-63995.89,8.928,0,-5.729,17.672,2.626,-6.359,-2.955,3.56,3251.795,9993.578,1240.671,789.389,-405.565,274.914
-1170.0,-1192.0,6818.0,-15.644,15.445,-3.256,622.958,2282.417,-144.95,-89.99,-0.41,-2.6,1500,280.42,0,3199.844,-63631.29,8.877,0,-5.66,17.512,2.573,-6.456,-3.097,3.472,3212.886,9903.409,1215.745,801.406,-425.071,268.139
-1137.0,-1199.0,6880.0,-9.161,17.622,-3.266,622.997,2282.371,-144.95,-89.99,-0.39,-2.62,1500,265.185,0,3199.997,-65663.92,9.161,0,-5.738,17.993,2.602,-6.798,-3.271,3.708,3256.87,10175.43,1229.264,843.85,-448.962,286.292
-1166.0,-1223.0,6840.0,-12.122,4.189,-3.185,623.04,2282.323,-144.952,-89.99,-0.37,-2.64,1500,249.863,0,3198.872,-65955.6,9.201,0,-5.746,17.688,2.717,-6.266,-3.066,3.445,3261.607,10002.68,1283.622,777.846,-420.882,266.003
-1144.0,-1219.0,6831.0,-11.375,16.819,-3.484,623.079,2282.274,-144.957,-89.99,-0.35,-2.66,1500,234.831,0,3197.708,-69434.46,9.687,0,-5.71,16.76,2.707,-6.586,-3.315,3.111,3241.307,9478.183,1279.116,817.626,-455.05,240.228
-1128.0,-1223.0,6874.0,-11.2,17.85,-3.569,623.115,2282.227,-144.956,-89.99,-0.33,-2.68,1500,220.627,0,3198.853,-69255.2,9.662,0,-5.424,18.038,2.626,-6.35,-3.421,3.224,3078.903,10200.54,1240.812,788.264,-469.581,248.918
-1164.0,-1238.0,6843.0,-16.839,3.029,-3.162,623.154,2282.185,-144.957,-89.99,-0.31,-2.7,1500,207.632,0,3198.566,-69963.13,9.76,0,-5.311,17.71,2.477,-6.48,-3.208,3.196,3014.787,10015.32,1170.54,804.484,-440.388,246.782
-1126.0,-1233.0,6829.0,-10.807,20.327,-3.411,623.187,2282.148,-144.96,-89.99,-0.3,-2.71,1500,195.846,0,3199.73,-69586.38,9.708,0,-5.483,17.453,2.733,-6.528,-3.488,3.045,3112.23,9870.038,1291.368,810.404,-478.81,235.146
-1119.0,-1242.0,6860.0,-10.103,14.583,-3.663,623.216,2282.109,-144.964,-89.99,-0.28,-2.73,1500,185.264,0,3200.264,-68805.53,9.599,0,-5.509,17.219,2.434,-6.435,-3.551,3.057,3127.286,9737.397,1149.979,798.861,-487.385,236.067
-1144.0,-1249.0,6863.0,-19.504,2.752,-3.609,623.252,2282.069,-144.966,-89.99,-0.27,-2.74,1500,175.881,0,3200.34,-68383.2,9.54,0,-5.373,17.515,2.672,-6.488,-3.381,3.322,3049.975,9904.926,1262.639,805.372,-464.148,256.54
-1103.0,-1246.0,6857.0,-11.002,19.725,-3.709,623.287,2282.029,-144.966,-90.0,-0.25,-2.76,1500,167.692,0,3201.122,-65955.6,9.201,0,-5.548,18.075,2.679,-6.177,-3.456,3.251,3149.447,10221.61,1266.019,766.776,-474.425,251.054
-1114.0,-1259.0,6841.0,-4.981,8.188,-3.479,623.316,2281.99,-144.97,-90.0,-0.24,-2.77,1500,160.685,0,3201.599,-65995.09,9.207,0,-5.519,18.028,2.137,-6.205,-3.512,3.015,3132.868,10194.82,1009.858,770.269,-482.017,232.827
-1128.0,-1255.0,6839.0,-14.582,7.874,-3.972,623.341,2281.956,-144.973,-90.0,-0.23,-2.78,1500,154.853,0,3200.741,-64995.49,9.067,0,-5.446,17.897,2.466,-6.492,-3.736,2.824,3091.422,10120.66,1165.188,805.964,-512.847,218.098
-1100.0,-1257.0,6896.0,-13.896,19.41,-3.406,623.372,2281.917,-144.979,-90.0,-0.22,-2.79,1500,150.185,0,3200.302,-64387.83,8.983,0,-5.393,17.492,2.633,-5.927,-3.499,2.906,3061.309,9892.117,1244.051,735.816,-480.316,224.394
-1121.0,-1284.0,6894.0,-9.786,3.258,-2.99,623.406,2281.879,-144.984,-90.0,-0.21,-2.8,1500,146.672,0,3200.34,-64682.55,9.024,0,-5.545,17.368,2.354,-5.843,-3.331,3.221,3147.755,9822.005,1112.52,725.397,-457.275,248.697
-1111.0,-1273.0,6844.0,-11.242,9.608,-3.75,623.433,2281.851,-144.985,-90.0,-0.2,-2.81,1500,144.306,0,3200.779,-62589.15,8.732,0,-5.386,17.785,2.384,-6.205,-3.469,3.343,3057.249,10057.62,1126.461,770.269,-476.126,258.123
-1087.0,-1262.0,6860.0,-9.156,16.057,-3.114,623.455,2281.829,-144.984,-90.0,-0.19,-2.82,1500,143.29,0,3200.741,-63482.41,8.856,0,-5.387,18.069,2.393,-6.281,-3.606,3.22,3057.757,10218.07,1130.686,779.681,-494.978,248.66
-1116.0,-1279.0,6866.0,-11.244,0.439,-2.472,623.478,2281.796,-144.984,-90.0,-0.18,-2.83,1500,144.829,0,3200.531,-61665.51,8.603,0,-5.373,18.299,2.675,-5.832,-3.603,3.029,3049.975,10348.19,1264.188,724.036,-494.585,233.931
-1091.0,-1272.0,6875.0,-10.856,9.316,-3.287,623.494,2281.77,-144.986,-90.0,-0.17,-2.84,1500,149.656,0,3199.692,-63026.67,8.793,0,-5.511,17.668,2.554,-5.899,-3.679,2.879,3127.963,9991.219,1206.591,732.264,-504.993,222.296
-1083.0,-1265.0,6867.0,-8.734,13.275,-3.378,623.51,2281.744,-144.984,-90.0,-0.16,-2.85,1500,158.025,0,3199.444,-65165.64,9.091,0,-5.29,17.341,2.747,-6.013,-3.505,2.923,3002.607,9806.499,1297.987,746.412,-481.167,225.683
-1111.0,-1254.0,6819.0,-11.596,2.961,-3.551,623.517,2281.729,-144.979,-90.0,-0.15,-2.86,1500,168.422,0,3198.872,-63351.77,8.838,0,-5.07,17.635,3.377,-6.144,-3.389,3.217,2878.098,9973.017,1595.55,762.751,-465.195,248.439
-1085.0,-1229.0,6833.0,-6.156,12.779,-3.427,623.509,2281.708,-144.987,-90.0,-0.14,-2.87,1500,180.43,0,3199.978,-64752.43,9.033,0,-5.728,17.786,2.936,-5.794,-3.265,3.46,3251.119,10058.3,1387.129,719.3,-448.177,267.182
-1091.0,-1221.0,6865.0,-1.666,9.189,-3.857,623.498,2281.663,-145.001,-90.0,-0.14,-2.87,1500,193.936,0,3199.825,-61887.3,8.634,0,-5.628,17.29,2.54,-5.367,-3.133,3.536,3194.447,9777.51,1200.113,666.319,-430.045,273.073
-1111.0,-1194.0,6839.0,-6.908,4.652,-3.507,623.486,2281.629,-145.009,-90.0,-0.13,-2.88,1500,209.451,0,3200.493,-61920.72,8.638,0,-5.222,16.978,2.722,-5.381,-2.999,3.489,2964.206,9601.386,1286.016,668.036,-411.718,269.428
-1086.0,-1158.0,6823.0,-0.074,12.992,-3.15,623.468,2281.611,-145.009,-90.0,-0.12,-2.89,1500,227.367,0,3200.264,-62865.64,8.77,0,-5.55,17.581,2.804,-5.555,-2.863,3.462,3150.124,9942.005,1325.166,689.583,-392.997,267.366
-1101.0,-1145.0,6809.0,2.594,5.828,-3.012,623.442,2281.602,-145.009,-90.0,-0.11,-2.9,1500,247.703,0,3200.188,-61507.52,8.581,0,-5.539,18.407,2.628,-5.542,-2.771,3.325,3144.203,10409.2,1241.797,688.044,-380.364,256.761
-1105.0,-1117.0,6812.0,-1.956,8.77,-3.211,623.411,2281.589,-145.012,-90.0,-0.1,-2.9,1500,270.459,0,3199.711,-61811.34,8.623,0,-5.498,18.095,2.591,-5.466,-2.653,3.239,3120.688,10232.74,1224.194,678.514,-364.131,250.133
-1086.0,-1083.0,6829.0,2.381,13.254,-3.118,623.385,2281.575,-145.014,-90.0,-0.1,-2.91,1500,295.676,0,3199.94,-61935.91,8.641,0,-5.354,18.103,2.869,-5.288,-2.297,3.193,3038.979,10237.62,1355.584,656.433,-315.367,246.524
-1105.0,-1058.0,6778.0,3.336,2.656,-2.328,623.355,2281.569,-145.014,-90.0,-0.09,-2.92,1500,323.52,0,3200.378,-61054.8,8.518,0,-5.025,18.627,2.95,-5.285,-1.944,3.256,2852.553,10533.58,1393.889,656.137,-266.864,251.422
-1088.0,-1021.0,6739.0,7.057,8.267,-3.073,623.321,2281.568,-145.014,-90.0,-0.08,-2.93,1500,354.064,0,3199.291,-62455.46,8.713,0,-5.02,18.895,3.493,-5.518,-1.753,3.466,2849.677,10685.27,1650.472,685.025,-240.616,267.66
-1069.0,-986.0,6781.0,8.255,10.68,-3.286,623.276,2281.575,-145.019,-90.0,-0.07,-2.93,1500,387.191,0,3200.626,-60969.73,8.506,0,-5.141,17.998,3.607,-5.462,-1.526,3.561,2918.36,10178.3,1704.408,678.04,-209.524,274.951
-1087.0,-950.0,6785.0,2.215,2.018,-2.593,623.225,2281.574,-145.021,-90.0,-0.06,-2.94,1500,421.658,0,3199.482,-61021.39,8.513,0,-5.254,18.231,3.71,-5.129,-1.426,3.561,2982.476,10309.93,1753.134,636.78,-195.713,274.951
-1078.0,-903.0,6732.0,10.696,8.947,-2.879,623.169,2281.562,-145.022,-90.0,-0.06,-2.94,1500,456.143,0,3200.55,-61355.6,8.56,0,-4.832,17.716,4.123,-4.853,-1.443,3.486,2742.761,10018.69,1948.177,602.446,-198.135,269.207
-1077.0,-859.0,6679.0,16.75,9.985,-2.714,623.116,2281.551,-145.021,-90.0,-0.05,-2.95,1500,490.246,0,3199.921,-59821.25,8.346,0,-4.429,17.106,5.75,-4.782,-1.245,3.364,2514.212,9673.857,2716.942,593.625,-170.905,259.78
-1086.0,-818.0,6693.0,9.488,4.059,-2.535,623.054,2281.553,-145.026,-90.0,-0.05,-2.96,1500,525.575,0,3199.711,-61750.58,8.615,0,-4.626,15.507,7.071,-4.925,-1.003,3.178,2625.695,8769.136,3341.22,611.384,-137.719,245.383
-1067.0,-778.0,6755.0,10.823,8.89,-2.563,622.981,2281.562,-145.033,-90.0,-0.04,-2.96,1500,562.639,0,3199.902,-59468.81,8.296,0,-4.542,13.944,8.114,-5.146,-0.844,3.056,2578.328,7885.312,3834.109,638.852,-115.857,235.957
-1067.0,-728.0,6752.0,15.224,6.255,-2.282,622.9,2281.563,-145.036,-90.0,-0.03,-2.97,1500,601.64,0,3199.978,-60848.2,8.489,0,-4.57,13.652,8.276,-5.071,-0.708,2.949,2594.229,7720.311,3910.577,629.499,-97.137,227.745
-1077.0,-652.0,6682.0,19.539,5.114,-2.328,622.811,2281.557,-145.039,-90.0,-0.03,-2.97,1500,642.136,0,3200.092,-60076.47,8.381,0,-4.136,13.427,8.396,-4.953,-0.501,2.887,2347.917,7593.063,3967.47,614.818,-68.794,222.921
-1075.0,-573.0,6652.0,27.676,11.393,-2.035,622.718,2281.543,-145.042,-90.0,-0.03,-2.97,1500,683.793,0,3199.253,-59812.14,8.344,0,-3.942,13.036,8.823,-4.68,-0.348,2.939,2237.449,7371.939,4168.992,581.016,-47.717,226.935
-1090.0,-506.0,6671.0,25.495,7.442,-1.554,622.611,2281.529,-145.048,-90.0,-0.02,-2.98,1500,726.652,0,3200.188,-61130.77,8.528,0,-3.869,12.644,9.319,-4.369,-0.53,3.025,2196.341,7150.14,4403.606,542.361,-72.722,233.6
-1100.0,-432.0,6705.0,25.162,7.39,-1.842,622.491,2281.513,-145.054,-90.0,-0.02,-2.98,1500,770.77,0,3199.577,-59414.12,8.289,0,-3.837,11.831,9.512,-4.165,-0.62,3.179,2178.07,6690.363,4494.72,517.084,-85.093,245.457
-1100.0,-350.0,6683.0,35.282,13.933,-1.857,622.364,2281.497,-145.057,-90.0,-0.02,-2.98,1500,816.166,0,3200.207,-61395.1,8.565,0,-3.737,11.887,9.719,-4.013,-0.688,3.307,2121.06,6722.386,4592.312,498.141,-94.387,255.399
-1115.0,-265.0,6614.0,29.142,6.419,-1.515,622.229,2281.485,-145.058,-90.0,-0.02,-2.98,1500,862.746,0,3199.692,-59164.98,8.254,0,-3.528,12.42,9.542,-3.879,-0.599,3.351,2002.81,7023.735,4508.662,481.507,-82.213,258.786
-1112.0,-189.0,6572.0,36.701,7.099,-0.984,622.093,2281.472,-145.061,-90.0,-0.02,-2.98,1500,910.522,0,3200.054,-60067.36,8.38,0,-3.322,12.486,10.194,-3.78,-0.359,3.432,1885.574,7060.982,4816.929,469.253,-49.223,265.046
-1108.0,-118.0,6616.0,42.949,9.696,-1.141,621.958,2281.46,-145.065,-90.0,-0.01,-2.99,1500,957.873,0,3200.378,-60586.91,8.452,0,-2.54,12.251,10.825,-3.695,0.032,3.479,1441.84,6928.173,5114.915,458.716,4.386,268.655
-1129.0,-28.0,6619.0,36.535,4.516,-1.066,621.818,2281.445,-145.071,-90.0,-0.01,-2.99,1500,1002.974,0,3199.539,-59590.34,8.313,0,-1.982,12.348,10.828,-3.607,0.582,3.488,1125.153,6982.78,5116.182,447.765,79.922,269.354
-1133.0,70.0,6554.0,46.891,10.493,-0.893,621.67,2281.442,-145.076,-90.0,-0.01,-2.98,1500,1045.7,0,3200.092,-61136.84,8.529,0,-1.547,11.858,11.413,-3.608,1.173,3.394,877.995,6705.532,5392.763,447.942,160.956,262.063
-1139.0,170.0,6498.0,56.099,14.271,-0.971,621.516,2281.445,-145.084,-90.0,-0.01,-2.98,1500,1085.938,0,3199.406,-58931.03,8.221,0,-1.476,11.531,11.655,-3.53,1.833,3.24,838.071,6520.644,5507.395,438.175,251.547,250.207
-1161.0,293.0,6462.0,46.599,6.851,-0.599,621.349,2281.449,-145.094,-90.0,-0.01,-2.98,1500,1123.596,0,3200.073,-59736.18,8.334,0,-1.273,11.891,11.426,-3.402,2.482,3.021,722.866,6724.577,5398.959,422.31,340.633,233.269
-1148.0,399.0,6482.0,58.162,12.022,-0.773,621.174,2281.452,-145.103,-90.0,-0.01,-2.98,1500,1158.579,0,3199.73,-61167.22,8.533,0,-1.039,11.765,12.031,-3.325,2.946,2.763,589.898,6653.453,5684.694,412.779,404.452,213.385
-1145.0,517.0,6442.0,65.372,7.717,-0.491,620.987,2281.454,-145.11,-90.0,-0.01,-2.98,1500,1190.8,0,3199.806,-59848.6,8.349,0,-0.989,12.09,12.292,-3.105,3.274,2.465,561.139,6837.162,5808.198,385.49,449.42,190.334
-1160.0,670.0,6323.0,56.874,-1.705,-0.38,620.796,2281.465,-145.119,-90.0,-0.01,-2.98,1500,1220.19,0,3199.31,-60863.39,8.491,0,-1.152,11.821,12.865,-2.974,4.045,2.121,654.182,6684.97,6079.005,369.21,555.197,163.785
-1124.0,758.0,6380.0,78.918,10.766,-1.034,620.604,2281.475,-145.134,-90.0,-0.01,-2.98,1500,1246.689,0,3199.425,-61677.66,8.605,0,-1.196,11.054,13.153,-2.883,5.056,1.748,678.881,6251.148,6215.183,357.845,694.029,134.99
-1131.0,877.0,6344.0,64.77,0.093,-0.281,620.404,2281.484,-145.146,-90.0,-0.01,-2.98,1500,1270.241,0,3199.539,-62182.02,8.675,0,-0.93,12.347,13.131,-2.798,5.795,1.387,527.643,6982.274,6204.762,347.308,795.42,107.079
-1132.0,1009.0,6285.0,56.935,-2.245,-1.252,620.197,2281.489,-145.159,-89.99,-0.01,-2.97,1500,1290.785,0,3197.994,-65335.78,9.115,0,-0.691,11.646,13.459,-2.699,6.427,1.035,391.968,6585.868,6359.529,335.054,882.215,79.941
-1094.0,1066.0,6376.0,86.022,8.811,-1.962,619.976,2281.491,-145.173,-89.99,-0.01,-2.97,1500,1308.263,0,3199.024,-65657.84,9.16,0,-0.099,11.826,13.748,-2.617,6.808,0.67,55.995,6687.667,6495.988,324.931,934.449,51.772
-1095.0,1178.0,6277.0,65.963,-1.933,-0.597,619.739,2281.49,-145.188,-89.99,-0.01,-2.97,1500,1322.601,0,3198.07,-67462.6,9.412,0,0.055,11.855,13.73,-2.488,6.802,0.354,-31.466,6704.184,6487.539,308.889,933.729,27.359
-1060.0,1267.0,6293.0,62.548,2.334,-3.197,619.496,2281.5,-145.202,-89.99,-0.01,-2.97,1500,1333.717,0,3198.967,-68759.95,9.593,0,0.06,11.519,14.505,-2.372,7.218,0.072,-34.172,6514.239,6853.685,294.445,990.806,5.56
-1027.0,1285.0,6453.0,72.984,-4.138,-2.059,619.249,2281.51,-145.216,-89.99,0.0,-2.97,1500,1343.133,0,3199.386,-67954.8,9.48,0,-0.051,12.189,14.225,-2.261,7.799,-0.138,29.097,6892.948,6721.731,280.711,1070.532,-10.678
-1001.0,1347.0,6351.0,57.005,-12.537,-0.53,618.999,2281.519,-145.23,-89.99,0.0,-2.97,1500,1352.548,0,3198.681,-71409.36,9.962,0,0.024,12.499,14.527,-2.122,8.16,-0.419,-13.534,7068.061,6864.387,263.426,1120.147,-32.33
-939.0,1363.0,6420.0,75.751,3.802,-3.738,618.741,2281.52,-145.249,-89.99,0.0,-2.97,1500,1361.964,0,3198.891,-71710.16,10.004,0,0.435,11.479,14.075,-2.021,8.416,-0.708,-246.651,6491.486,6650.474,250.935,1155.297,-54.644
-937.0,1374.0,6561.0,67.404,-13.354,-2.986,618.476,2281.518,-145.26,-89.98,-0.01,-2.97,1500,1371.379,0,3198.528,-73806.59,10.297,0,0.785,12.851,14.559,-1.878,8.301,-0.983,-445.764,7267.444,6879.315,233.117,1139.391,-75.891
-919.0,1424.0,6418.0,48.979,-16.671,-1.224,618.196,2281.517,-145.272,-89.98,-0.01,-2.97,1500,1380.794,0,3199.138,-74724.16,10.425,0,1.048,12.908,14.585,-1.754,7.857,-1.277,-594.803,7299.467,6891.426,217.785,1078.452,-98.647
-874.0,1383.0,6586.0,85.381,1.424,-3.581,617.905,2281.519,-145.289,-89.98,-0.01,-2.97,1500,1390.21,0,3199.577,-73709.36,10.283,0,0.699,11.233,14.525,-1.652,7.686,-1.443,-397.043,6352.272,6863.542,205.117,1055.019,-111.461
-887.0,1414.0,6673.0,64.077,-15.054,-3.991,617.615,2281.523,-145.298,-89.98,-0.01,-2.97,1500,1399.625,0,3200.302,-74490.2,10.392,0,0.864,13.26,14.759,-1.509,7.467,-1.48,-490.594,7498.85,6973.809,187.358,1024.974,-114.259
-868.0,1479.0,6504.0,37.218,-12.069,-2.496,617.336,2281.528,-145.306,-89.98,-0.01,-2.97,1500,1409.04,0,3201.103,-72876.87,10.167,0,0.833,12.829,14.797,-1.413,7.819,-1.62,-472.662,7254.635,6991.975,175.459,1073.346,-125.085
-832.0,1407.0,6703.0,85.358,-7.02,-1.731,617.062,2281.533,-145.318,-89.98,-0.01,-2.97,1500,1418.456,0,3200.989,-74228.91,10.356,0,1.207,11.923,15.042,-1.303,8.358,-1.826,-685.141,6742.61,7107.733,161.726,1147.312,-140.992
-832.0,1448.0,6686.0,64.657,-13.943,-4.708,616.775,2281.533,-145.328,-89.98,-0.01,-2.97,1500,1427.871,0,3200.436,-73870.39,10.306,0,1.282,13.367,14.747,-1.148,7.954,-2.007,-727.602,7559.355,6968.316,142.546,1091.805,-154.948
-809.0,1523.0,6623.0,36.507,-8.878,-3.62,616.486,2281.539,-145.335,-89.98,-0.01,-2.97,1500,1437.248,0,3199.959,-74766.7,10.431,0,1.3,12.619,14.945,-1.057,7.899,-2.145,-737.753,7135.983,7061.684,131.239,1084.277,-165.626
-805.0,1468.0,6814.0,80.769,-17.719,-1.592,616.191,2281.549,-145.342,-89.98,-0.01,-2.97,1500,1446.099,0,3199.596,-76677.79,10.697,0,0.929,12.769,15.391,-0.936,7.802,-2.272,-527.474,7220.927,7272.64,116.203,1070.99,-175.458
-795.0,1536.0,6665.0,56.443,-8.575,-3.805,615.89,2281.556,-145.35,-89.98,-0.01,-2.98,1500,1454.277,0,3199.883,-76671.71,10.696,0,0.89,12.933,15.047,-0.833,7.522,-2.388,-505.143,7313.624,7109.846,103.417,1032.567,-184.369
-771.0,1559.0,6730.0,53.139,-7.218,-4.075,615.596,2281.561,-145.356,-89.98,-0.01,-2.98,1500,1461.783,0,3200.035,-76787.16,10.712,0,1.118,12.334,15.41,-0.74,7.628,-2.482,-634.728,6975.027,7281.653,91.873,1047.099,-191.623
-794.0,1510.0,6915.0,71.149,-23.972,-2.346,615.308,2281.558,-145.362,-89.98,-0.01,-2.98,1500,1468.617,0,3199.883,-76735.52,10.705,0,1.648,13.36,15.576,-0.607,7.929,-2.526,-935.682,7554.973,7359.952,75.298,1088.336,-195.084
-777.0,1558.0,6712.0,55.665,-7.844,-2.834,615.02,2281.566,-145.369,-89.98,-0.01,-2.98,1500,1474.777,0,3199.825,-77060.62,10.751,0,1.763,12.761,15.249,-0.549,8.25,-2.605,-1000.982,7216.545,7205.325,68.136,1132.388,-201.123
-752.0,1546.0,6797.0,69.947,-1.256,-4.401,614.733,2281.577,-145.374,-89.98,-0.01,-2.98,1500,1480.266,0,3200.817,-76878.32,10.725,0,1.489,12.602,15.727,-0.468,8.528,-2.691,-845.007,7126.376,7431.068,58.072,1170.548,-207.824
-788.0,1553.0,6911.0,56.777,-22.199,-1.699,614.434,2281.591,-145.378,-89.98,-0.01,-2.98,1500,1485.081,0,3202.19,-72029.18,10.049,0,1.501,13.752,15.399,-0.368,8.347,-2.741,-852.112,7777.109,7276.161,45.641,1145.741,-211.691
-772.0,1599.0,6770.0,47.344,-17.329,-1.372,614.125,2281.595,-145.387,-89.98,-0.01,-2.98,1500,1489.225,0,3202.305,-71807.38,10.018,0,1.504,12.284,15.338,-0.324,7.983,-2.796,-853.804,6946.544,7247.573,40.254,1095.798,-215.888
-743.0,1556.0,6918.0,80.108,-6.449,-2.774,613.817,2281.602,-145.389,-89.98,-0.01,-2.98,1500,1492.695,0,3202.781,-70449.26,9.828,0,1.647,12.644,15.909,-0.193,7.815,-2.83,-934.667,7150.309,7517.112,23.916,1072.692,-218.54
-762.0,1590.0,6920.0,55.685,-19.294,-2.356,613.513,2281.608,-145.388,-89.98,-0.01,-2.98,1500,1495.494,0,3200.531,-70795.63,9.877,0,1.607,14.194,15.663,-0.139,7.858,-2.827,-912.336,8027.054,7401.072,17.226,1078.648,-218.282
-749.0,1628.0,6799.0,36.271,-17.283,-1.313,613.217,2281.624,-145.395,-89.98,-0.01,-2.98,1500,1497.619,0,3199.367,-74863.91,10.444,0,1.496,12.478,15.742,-0.063,8.518,-2.831,-849.236,7056.264,7438.532,7.873,1169.305,-218.576
-745.0,1548.0,6997.0,74.223,-17.686,-1.538,612.918,2281.638,-145.399,-89.98,-0.01,-2.98,1500,1499.073,0,3198.91,-74143.84,10.344,0,1.214,13.168,15.607,-0.001,8.668,-2.87,-689.201,7446.771,7374.597,0.178,1189.792,-221.633
-748.0,1597.0,6873.0,49.621,-9.359,-4.039,612.611,2281.646,-145.398,-89.98,-0.01,-2.98,1500,1499.853,0,3197.765,-77033.27,10.747,0,1.423,14.193,15.769,0.048,8.182,-2.917,-807.62,8026.379,7450.925,-5.92,1123.158,-225.241
-729.0,1613.0,6891.0,50.117,2.976,-3.438,612.302,2281.65,-145.403,-89.98,-0.01,-2.98,1500,1500.0,0,3199.52,-77094.04,10.755,0,1.696,12.103,16.238,0.1,7.931,-2.937,-962.58,6844.24,7672.725,-12.431,1088.598,-226.788
-784.0,1575.0,7041.0,57.911,-26.267,-1.336,611.986,2281.651,-145.405,-89.98,-0.01,-2.98,1500,1500.0,0,3199.253,-76990.73,10.741,0,1.883,13.583,15.731,0.187,7.737,-3.001,-1068.819,7681.547,7433.04,-23.205,1062.022,-231.759
-767.0,1614.0,6859.0,39.714,-8.829,-2.995,611.669,2281.663,-145.404,-89.98,-0.01,-2.98,1500,1500.0,0,3199.711,-78075.41,10.892,0,1.755,14.097,15.7,0.141,7.516,-3.085,-995.907,7972.11,7418.394,-17.522,1031.651,-238.24
-728.0,1564.0,6967.0,65.702,3.183,-3.133,611.361,2281.679,-145.409,-89.98,-0.01,-2.98,1500,1500.0,0,3201.218,-74159.03,10.346,0,1.313,12.089,16.088,0.195,7.801,-3.081,-745.196,6836.656,7602.03,-24.211,1070.794,-237.945
-785.0,1561.0,7036.0,44.993,-29.492,0.089,611.055,2281.695,-145.408,-89.98,-0.01,-2.98,1500,1500.0,0,3201.561,-74089.15,10.336,0,1.447,14.295,15.723,0.263,7.915,-3.079,-821.154,8083.852,7429.378,-32.617,1086.438,-237.724
-754.0,1578.0,6890.0,38.84,-16.005,-1.968,610.753,2281.702,-145.407,-89.99,-0.01,-2.98,1500,1500.0,0,3201.732,-73308.3,10.227,0,1.672,13.903,15.708,0.23,7.925,-3.118,-949.047,7862.053,7422.478,-28.592,1087.878,-240.78
-722.0,1506.0,7080.0,69.202,-8.856,-2.423,610.447,2281.715,-145.413,-89.99,-0.01,-2.98,1500,1500.0,0,3200.245,-72311.74,10.088,0,1.709,12.353,15.878,0.299,7.997,-3.119,-970.193,6985.813,7502.607,-37.057,1097.761,-240.817
-763.0,1532.0,7061.0,43.326,-23.86,-0.847,610.135,2281.726,-145.411,-89.99,-0.01,-2.98,1500,1500.0,0,3200.893,-72712.8,10.144,0,1.407,14.155,15.733,0.315,7.616,-3.176,-798.823,8004.807,7434.167,-39.07,1045.462,-245.236
-743.0,1569.0,6904.0,33.062,-10.947,-0.913,609.819,2281.743,-145.407,-89.99,-0.01,-2.99,1500,1500.0,0,3200.607,-71755.73,10.01,0,1.226,13.387,15.961,0.291,7.253,-3.228,-695.967,7570.311,7542.039,-36.169,995.65,-249.286
-742.0,1489.0,7137.0,67.836,-16.469,-1.304,609.502,2281.751,-145.411,-89.99,-0.01,-2.99,1500,1500.0,0,3200.302,-73764.05,10.291,0,1.287,12.541,15.764,0.372,7.181,-3.283,-730.309,7092.163,7448.812,-46.173,985.766,-253.484
-751.0,1521.0,7044.0,39.692,-14.079,-2.789,609.193,2281.756,-145.409,-89.99,-0.01,-2.99,1500,1500.0,0,3198.91,-73843.05,10.302,0,1.799,14.299,15.688,0.301,7.14,-3.351,-1021.113,8086.211,7412.62,-37.412,980.137,-258.749
-719.0,1535.0,6973.0,34.642,-4.773,-2.206,608.894,2281.768,-145.407,-89.99,-0.01,-2.99,1500,1500.0,0,3198.757,-75702.49,10.561,0,1.77,13.009,15.999,0.28,7.432,-3.417,-1004.534,7356.433,7559.642,-34.749,1020.196,-263.831
-746.0,1466.0,7148.0,59.999,-25.36,-1.226,608.594,2281.781,-145.407,-89.99,-0.01,-2.99,1500,1500.0,0,3199.234,-77598.4,10.826,0,1.788,13.168,15.976,0.336,7.667,-3.543,-1014.854,7446.602,7548.798,-41.675,1052.401,-273.626
-743.0,1525.0,6951.0,32.043,-16.181,-3.768,608.286,2281.797,-145.405,-89.99,-0.01,-2.99,1500,1500.0,0,3198.7,-77127.46,10.76,0,1.695,14.25,15.498,0.267,7.355,-3.686,-962.242,8058.402,7323.055,-33.15,1009.658,-284.599
-698.0,1494.0,7059.0,52.929,-3.014,-3.619,607.974,2281.81,-145.403,-89.99,-0.01,-2.99,1500,1500.0,0,3199.539,-79333.27,11.068,0,1.513,13.189,16.044,0.254,7.055,-3.773,-858.54,7458.737,7580.906,-31.493,968.486,-291.337
-748.0,1474.0,7199.0,48.015,-30.898,-1.263,607.659,2281.819,-145.402,-89.99,-0.01,-2.99,1500,1500.0,0,3199.12,-77531.55,10.816,0,1.763,13.51,16.059,0.31,6.718,-3.862,-1000.643,7640.086,7588.37,-38.537,922.209,-298.26
-728.0,1529.0,6936.0,30.517,-12.963,-3.065,607.351,2281.827,-145.397,-89.99,-0.01,-2.99,1500,1500.0,0,3200.226,-77811.08,10.855,0,1.721,13.953,15.724,0.262,6.712,-3.938,-976.79,7890.705,7429.66,-32.558,921.358,-304.114
-682.0,1461.0,7120.0,65.097,-1.823,-3.513,607.047,2281.846,-145.396,-89.99,-0.01,-2.99,1500,1500.0,0,3200.512,-78567.62,10.961,0,1.53,13.166,15.807,0.273,7.202,-3.954,-868.521,7445.759,7469.091,-33.861,988.646,-305.293
-742.0,1479.0,7142.0,37.738,-30.721,-0.856,606.744,2281.864,-145.397,-89.99,-0.01,-2.99,1500,1500.0,0,3200.779,-75754.14,10.568,0,1.211,13.701,15.682,0.294,7.092,-3.979,-687.171,7748.12,7410.085,-36.524,973.461,-307.244
-712.0,1518.0,6947.0,26.126,-14.226,-1.519,606.445,2281.877,-145.393,-89.99,-0.01,-2.99,1500,1500.0,0,3201.198,-75978.98,10.6,0,1.538,13.639,15.834,0.286,7.236,-4.058,-872.751,7712.727,7481.906,-35.459,993.228,-313.357
-690.0,1431.0,7164.0,68.862,-11.458,-1.819,606.146,2281.881,-145.39,-89.99,-0.01,-2.99,1500,1500.0,0,3201.351,-74471.98,10.389,0,1.823,13.682,15.93,0.341,7.264,-4.114,-1034.647,7737.333,7526.97,-42.385,997.156,-317.665
-724.0,1478.0,7102.0,32.8,-22.992,-1.527,605.84,2281.886,-145.39,-89.99,-0.01,-2.99,1500,1500.0,0,3201.37,-73460.22,10.248,0,2.106,14.005,15.664,0.388,6.932,-4.141,-1195.19,7919.694,7401.354,-48.186,951.598,-319.727
-695.0,1511.0,6967.0,26.926,-7.197,-1.883,605.533,2281.9,-145.387,-89.99,-0.01,-2.99,1500,1500.0,0,3200.283,-75896.95,10.588,0,1.715,13.292,15.931,0.402,6.814,-4.15,-973.407,7516.715,7527.534,-49.903,935.3,-320.427
-709.0,1433.0,7153.0,62.037,-21.208,-1.4,605.223,2281.912,-145.383,-89.99,-0.01,-2.99,1500,1500.0,0,3199.749,-74380.83,10.377,0,1.544,13.979,15.998,0.49,6.724,-4.13,-876.472,7905.199,7559.219,-60.854,922.994,-318.88
-707.0,1475.0,7037.0,32.929,-16.388,-3.785,604.918,2281.925,-145.383,-89.99,-0.01,-2.99,1500,1500.0,0,3199.558,-75662.99,10.556,0,1.76,13.605,15.784,0.425,6.759,-4.096,-999.121,7694.019,7458.248,-52.744,927.772,-316.303
-669.0,1474.0,7049.0,30.48,-4.214,-3.634,604.62,2281.934,-145.383,-89.99,-0.01,-2.99,1500,1500.0,0,3200.321,-74596.55,10.407,0,1.749,12.787,15.787,0.456,7.032,-3.986,-992.862,7231.208,7459.515,-56.651,965.213,-307.833
-702.0,1425.0,7159.0,45.818,-29.846,-0.523,604.32,2281.946,-145.379,-89.99,-0.01,-2.99,1500,1500.0,0,3200.817,-72408.96,10.102,0,1.932,14.135,15.57,0.498,7.071,-3.914,-1096.901,7993.514,7356.994,-61.861,970.646,-302.2
-675.0,1466.0,6917.0,36.245,-10.676,-2.808,604.015,2281.956,-145.377,-89.99,-0.01,-2.99,1500,1500.0,0,3200.588,-73873.43,10.306,0,1.696,13.489,15.729,0.51,6.794,-3.976,-962.749,7628.288,7432.335,-63.281,932.551,-307.06
-642.0,1431.0,7067.0,54.24,-0.363,-4.326,603.707,2281.973,-145.375,-89.99,-0.01,-2.99,1500,1500.0,0,3200.893,-71345.55,9.953,0,1.474,13.166,16.002,0.567,6.632,-3.981,-836.886,7445.591,7561.332,-70.444,910.361,-307.428
-703.0,1437.0,7167.0,31.688,-32.96,-0.51,603.392,2281.978,-145.373,-89.99,-0.01,-2.99,1500,1500.0,0,3200.626,-71846.88,10.023,0,1.486,14.439,15.357,0.596,6.252,-3.949,-843.653,8165.425,7256.445,-73.996,858.193,-304.961
-673.0,1470.0,6938.0,27.158,-14.634,-1.747,603.087,2281.983,-145.371,-89.99,-0.01,-2.99,1500,1500.0,0,3199.787,-72442.38,10.106,0,1.971,13.006,15.859,0.565,6.256,-3.988,-1118.724,7355.085,7493.735,-70.148,858.716,-307.944
-650.0,1401.0,7095.0,64.192,-7.661,-3.393,602.791,2281.992,-145.368,-89.99,-0.01,-2.99,1500,1500.0,0,3199.52,-72773.56,10.152,0,1.873,13.272,15.934,0.604,6.676,-3.954,-1062.898,7505.254,7529.224,-75.002,916.448,-305.33
-697.0,1441.0,7056.0,23.573,-26.875,-1.794,602.493,2282.006,-145.365,-89.99,-0.01,-2.99,1500,1500.0,0,3198.891,-74162.07,10.346,0,1.95,14.798,15.346,0.609,6.727,-3.901,-1107.052,8368.685,7251.375,-75.653,923.387,-301.242
-654.0,1439.0,6960.0,25.483,-11.073,-1.443,602.189,2282.022,-145.368,-89.99,-0.01,-2.99,1500,1500.0,0,3199.291,-74587.43,10.406,0,1.648,12.423,15.53,0.565,6.622,-3.901,-935.513,7025.083,7338.124,-70.089,908.921,-301.205
-654.0,1355.0,7156.0,61.437,-20.28,-1.51,601.884,2282.032,-145.366,-90.0,-0.01,-2.99,1500,1500.0,0,3199.73,-75620.45,10.55,0,1.755,13.405,15.694,0.606,6.544,-3.89,-996.414,7580.928,7415.718,-75.18,898.252,-300.395
-665.0,1424.0,6996.0,24.372,-19.88,-3.485,601.579,2282.041,-145.36,-90.0,-0.01,-2.99,1500,1500.0,0,3198.776,-74623.89,10.411,0,2.002,14.521,15.48,0.605,6.217,-3.876,-1136.149,8211.605,7314.606,-75.121,853.349,-299.291
-625.0,1412.0,7002.0,33.919,-6.244,-3.143,601.272,2282.05,-145.362,-90.0,-0.01,-2.99,1500,1500.0,0,3200.397,-75556.65,10.541,0,1.814,12.201,15.683,0.61,6.113,-3.827,-1029.572,6899.858,7410.648,-75.713,839.145,-295.535
-657.0,1367.0,7130.0,44.438,-32.569,-0.452,600.964,2282.065,-145.36,-90.0,-0.01,-3.0,1500,1500.0,0,3200.092,-74897.34,10.449,0,1.662,14.029,15.615,0.657,6.123,-3.78,-943.295,7933.683,7378.259,-81.573,840.52,-291.926
-633.0,1407.0,6936.0,27.947,-13.187,-4.017,600.661,2282.079,-145.356,-90.0,-0.01,-3.0,1500,1500.0,0,3200.188,-74651.23,10.414,0,1.413,14.27,15.303,0.644,6.223,-3.783,-802.206,8070.031,7231.096,-79.975,854.2,-292.147
-598.0,1372.0,7062.0,43.962,-0.776,-4.476,600.365,2282.093,-145.358,-90.0,-0.01,-2.99,1500,1500.0,0,3200.645,-75486.77,10.531,0,1.664,12.1,15.71,0.662,6.389,-3.739,-944.648,6842.723,7423.041,-82.224,876.979,-288.723
-661.0,1378.0,7103.0,25.762,-37.36,-0.838,600.064,2282.096,-145.354,-90.0,-0.01,-3.0,1500,1500.0,0,3199.596,-73201.96,10.212,0,1.936,14.331,15.465,0.69,6.179,-3.747,-1098.932,8104.582,7307.283,-85.599,848.112,-289.312
-620.0,1396.0,6897.0,28.034,-12.007,-2.723,599.763,2282.101,-145.353,-90.0,-0.01,-3.0,1500,1500.0,0,3200.245,-74168.15,10.347,0,2.347,13.693,15.181,0.649,6.229,-3.886,-1332.048,7743.738,7173.499,-80.626,855.051,-300.064
-592.0,1333.0,7099.0,58.147,-5.957,-4.106,599.455,2282.111,-145.355,-90.0,-0.01,-3.0,1500,1500.0,0,3200.168,-75201.17,10.491,0,1.936,12.198,15.506,0.704,5.946,-4.013,-1098.762,6897.836,7326.717,-87.374,816.17,-309.859
-644.0,1382.0,7070.0,18.593,-33.701,-1.792,599.145,2282.125,-145.351,-90.0,-0.01,-3.0,1500,1500.0,0,3199.749,-74064.84,10.333,0,1.854,14.356,15.444,0.709,5.591,-4.142,-1052.579,8118.571,7297.707,-88.026,767.471,-319.837
-598.0,1391.0,6912.0,24.404,-12.927,-2.187,598.844,2282.138,-145.348,-90.0,-0.01,-3.0,1500,1500.0,0,3199.425,-75690.34,10.559,0,1.792,13.227,15.487,0.704,5.832,-4.271,-1017.222,7479.804,7317.704,-87.434,800.526,-329.816
-584.0,1314.0,7116.0,59.299,-17.533,-2.431,598.543,2282.145,-145.351,-90.0,-0.01,-3.0,1500,1500.0,0,3200.092,-75085.71,10.475,0,2.007,12.656,15.291,0.771,6.029,-4.376,-1139.194,7156.882,7225.041,-95.662,827.559,-337.88
-610.0,1377.0,6990.0,18.767,-25.973,-2.775,598.246,2282.154,-145.348,-90.0,-0.01,-3.0,1500,1500.0,0,3200.15,-74365.63,10.375,0,2.119,14.187,15.343,0.781,5.865,-4.422,-1202.802,8022.84,7249.967,-96.905,805.042,-341.489
-566.0,1370.0,6948.0,26.814,-9.699,-2.569,597.951,2282.171,-145.345,-90.0,-0.01,-3.0,1500,1500.0,0,3199.501,-76696.02,10.7,0,1.686,12.922,15.648,0.791,6.124,-4.446,-957.167,7307.388,7394.031,-98.148,840.651,-343.293
